;FLAVOR:UltiGCode
;TIME:4266
;MATERIAL:4135
;MATERIAL2:0
;NOZZLE_DIAMETER:0.4
;Generated with Cura_SteamEngine 3.2.1
M82 ;absolute extrusion mode

;LAYER_COUNT:253
;LAYER:0
M107
G0 F4320 X111.873 Y105.816 Z0.27
;TYPE:SKIRT
G1 F1800 X112.472 Y105.296 E0.07496
G1 X113.121 Y104.84 E0.14992
G1 X113.813 Y104.451 E0.22493
G1 X114.54 Y104.133 E0.29992
G1 X115.296 Y103.89 E0.37496
G1 X116.072 Y103.725 E0.44993
G1 X116.86 Y103.639 E0.52484
G1 X117.323 Y103.625 E0.56861
G1 X121.977 Y103.625 E1.00842
G1 X122.769 Y103.665 E1.08336
G1 X123.554 Y103.784 E1.15839
G1 X124.322 Y103.982 E1.23334
G1 X125.067 Y104.257 E1.30838
G1 X125.78 Y104.604 E1.38332
G1 X126.455 Y105.022 E1.45834
G1 X127.084 Y105.505 E1.53329
G1 X127.661 Y106.05 E1.60829
G1 X128.181 Y106.649 E1.68325
G1 X128.637 Y107.298 E1.75821
G1 X129.026 Y107.99 E1.83322
G1 X129.344 Y108.717 E1.90821
G1 X129.587 Y109.473 E1.98325
G1 X129.752 Y110.249 E2.05822
G1 X129.838 Y111.037 E2.13313
G1 X129.852 Y111.5 E2.17691
G1 X129.852 Y115.5 E2.55491
G1 X129.812 Y116.292 E2.62985
G1 X129.693 Y117.077 E2.70488
G1 X129.495 Y117.845 E2.77982
G1 X129.22 Y118.59 E2.85487
G1 X128.873 Y119.303 E2.9298
G1 X128.455 Y119.978 E3.00483
G1 X127.972 Y120.607 E3.07978
G1 X127.427 Y121.184 E3.15478
G1 X126.828 Y121.704 E3.22974
G1 X126.179 Y122.16 E3.3047
G1 X125.487 Y122.549 E3.37971
G1 X124.76 Y122.867 E3.4547
G1 X124.004 Y123.11 E3.52974
G1 X123.228 Y123.275 E3.60471
G1 X122.44 Y123.361 E3.67962
G1 X121.977 Y123.375 E3.72339
G1 X117.323 Y123.375 E4.1632
G1 X116.531 Y123.335 E4.23814
G1 X115.746 Y123.216 E4.31317
G1 X114.978 Y123.018 E4.38812
G1 X114.233 Y122.743 E4.46316
G1 X113.52 Y122.396 E4.5381
G1 X112.845 Y121.978 E4.61312
G1 X112.216 Y121.495 E4.68807
G1 X111.639 Y120.95 E4.76307
G1 X111.119 Y120.351 E4.83803
G1 X110.663 Y119.702 E4.91299
G1 X110.274 Y119.01 E4.988
G1 X109.956 Y118.283 E5.06299
G1 X109.713 Y117.527 E5.13803
G1 X109.548 Y116.751 E5.213
G1 X109.462 Y115.963 E5.28791
G1 X109.448 Y115.5 E5.33169
G1 X109.448 Y111.5 E5.70969
G1 X109.488 Y110.708 E5.78463
G1 X109.607 Y109.923 E5.85966
G1 X109.805 Y109.155 E5.9346
G1 X110.08 Y108.41 E6.00965
G1 X110.427 Y107.697 E6.08458
G1 X110.845 Y107.022 E6.15961
G1 X111.328 Y106.393 E6.23456
G1 X111.873 Y105.816 E6.30956
G0 F4320 X112.217 Y105.973
G1 F1800 X112.813 Y105.476 E6.3829
G1 X113.457 Y105.044 E6.45618
G1 X114.142 Y104.681 E6.52944
G1 X114.861 Y104.389 E6.60277
G1 X115.606 Y104.174 E6.67605
G1 X116.369 Y104.036 E6.74932
G1 X117.323 Y103.975 E6.83966
G1 X121.977 Y103.975 E7.27946
G1 X122.752 Y104.015 E7.3528
G1 X123.518 Y104.134 E7.42605
G1 X124.268 Y104.332 E7.49935
G1 X124.994 Y104.606 E7.57269
G1 X125.687 Y104.953 E7.64593
G1 X126.341 Y105.37 E7.71922
G1 X126.949 Y105.852 E7.79254
G1 X127.504 Y106.394 E7.86585
G1 X128.001 Y106.99 E7.93919
G1 X128.433 Y107.634 E8.01247
G1 X128.796 Y108.319 E8.08573
G1 X129.088 Y109.038 E8.15906
G1 X129.303 Y109.783 E8.23234
G1 X129.441 Y110.546 E8.30561
G1 X129.502 Y111.5 E8.39595
G1 X129.502 Y115.5 E8.77395
G1 X129.462 Y116.275 E8.84728
G1 X129.343 Y117.041 E8.92054
G1 X129.145 Y117.791 E8.99384
G1 X128.871 Y118.517 E9.06717
G1 X128.524 Y119.21 E9.14041
G1 X128.107 Y119.864 E9.21371
G1 X127.625 Y120.472 E9.28703
G1 X127.083 Y121.027 E9.36034
G1 X126.487 Y121.524 E9.43367
G1 X125.843 Y121.956 E9.50696
G1 X125.158 Y122.319 E9.58022
G1 X124.439 Y122.611 E9.65355
G1 X123.694 Y122.826 E9.72683
G1 X122.931 Y122.964 E9.8001
G1 X121.977 Y123.025 E9.89044
G1 X117.323 Y123.025 E10.33024
G1 X116.548 Y122.985 E10.40358
G1 X115.782 Y122.866 E10.47683
G1 X115.032 Y122.668 E10.55013
G1 X114.306 Y122.394 E10.62346
G1 X113.613 Y122.047 E10.6967
G1 X112.959 Y121.63 E10.77
G1 X112.351 Y121.148 E10.84332
G1 X111.796 Y120.606 E10.91663
G1 X111.299 Y120.01 E10.98997
G1 X110.867 Y119.366 E11.06325
G1 X110.504 Y118.681 E11.13651
G1 X110.212 Y117.962 E11.20984
G1 X109.997 Y117.217 E11.28312
G1 X109.859 Y116.454 E11.35639
G1 X109.798 Y115.5 E11.44673
G1 X109.798 Y111.5 E11.82473
G1 X109.838 Y110.725 E11.89806
G1 X109.957 Y109.959 E11.97132
G1 X110.155 Y109.209 E12.04462
G1 X110.429 Y108.483 E12.11795
G1 X110.776 Y107.79 E12.19119
G1 X111.193 Y107.136 E12.26449
G1 X111.675 Y106.528 E12.33781
G1 X112.217 Y105.973 E12.41112
G0 F4320 X112.56 Y106.134
G1 F1800 X113.152 Y105.662 E12.48267
G1 X113.791 Y105.255 E12.55426
G1 X114.469 Y104.917 E12.62585
G1 X115.178 Y104.653 E12.69735
G1 X115.912 Y104.465 E12.76895
G1 X116.661 Y104.356 E12.84048
G1 X117.323 Y104.325 E12.9031
G1 X121.977 Y104.325 E13.34291
G1 X122.733 Y104.365 E13.41445
G1 X123.481 Y104.484 E13.48602
G1 X124.212 Y104.682 E13.55759
G1 X124.919 Y104.956 E13.62925
G1 X125.592 Y105.302 E13.70076
G1 X126.225 Y105.718 E13.77234
G1 X126.811 Y106.198 E13.84392
G1 X127.343 Y106.737 E13.91549
G1 X127.815 Y107.329 E13.98704
G1 X128.222 Y107.968 E14.05863
G1 X128.56 Y108.646 E14.13022
G1 X128.824 Y109.355 E14.20172
G1 X129.012 Y110.089 E14.27332
G1 X129.121 Y110.838 E14.34484
G1 X129.152 Y111.5 E14.40747
G1 X129.152 Y115.5 E14.78547
G1 X129.112 Y116.256 E14.85701
G1 X128.993 Y117.004 E14.92859
G1 X128.795 Y117.735 E15.00016
G1 X128.521 Y118.442 E15.07181
G1 X128.175 Y119.115 E15.14332
G1 X127.759 Y119.748 E15.2149
G1 X127.279 Y120.334 E15.28648
G1 X126.74 Y120.866 E15.35805
G1 X126.148 Y121.338 E15.4296
G1 X125.509 Y121.745 E15.5012
G1 X124.831 Y122.083 E15.57279
G1 X124.122 Y122.347 E15.64428
G1 X123.388 Y122.535 E15.71588
G1 X122.639 Y122.644 E15.78741
G1 X121.977 Y122.675 E15.85004
G1 X117.323 Y122.675 E16.28984
G1 X116.567 Y122.635 E16.36138
G1 X115.819 Y122.516 E16.43296
G1 X115.088 Y122.318 E16.50453
G1 X114.381 Y122.044 E16.57618
G1 X113.708 Y121.698 E16.64769
G1 X113.075 Y121.282 E16.71927
G1 X112.489 Y120.802 E16.79085
G1 X111.957 Y120.263 E16.86242
G1 X111.485 Y119.671 E16.93397
G1 X111.078 Y119.032 E17.00556
G1 X110.74 Y118.354 E17.07715
G1 X110.476 Y117.645 E17.14865
G1 X110.288 Y116.911 E17.22025
G1 X110.179 Y116.162 E17.29178
G1 X110.148 Y115.5 E17.3544
G1 X110.148 Y111.5 E17.7324
G1 X110.188 Y110.744 E17.80395
G1 X110.307 Y109.996 E17.87552
G1 X110.505 Y109.265 E17.94709
G1 X110.779 Y108.558 E18.01874
G1 X111.125 Y107.885 E18.09026
G1 X111.541 Y107.252 E18.16184
G1 X112.021 Y106.666 E18.23342
G1 X112.56 Y106.134 E18.30499
G0 F4320 X112.366 Y106.808
G1 F1800 X112.902 Y106.3 E18.37477
G1 X113.49 Y105.853 E18.44457
G1 X114.123 Y105.472 E18.51439
G1 X114.793 Y105.161 E18.58419
G1 X115.493 Y104.925 E18.654
G1 X116.214 Y104.766 E18.72377
G1 X116.949 Y104.685 E18.79365
G1 X117.323 Y104.675 E18.82901
G1 X121.977 Y104.675 E19.26881
G1 X122.715 Y104.715 E19.33865
G1 X123.443 Y104.834 E19.40836
G1 X124.155 Y105.032 E19.4782
G1 X124.841 Y105.305 E19.54797
G1 X125.494 Y105.651 E19.61781
G1 X126.106 Y106.065 E19.68763
G1 X126.669 Y106.543 E19.75742
G1 X127.177 Y107.079 E19.82721
G1 X127.624 Y107.667 E19.89701
G1 X128.005 Y108.3 E19.96683
G1 X128.316 Y108.97 E20.03663
G1 X128.552 Y109.67 E20.10644
G1 X128.711 Y110.391 E20.17621
G1 X128.792 Y111.126 E20.24609
G1 X128.802 Y111.5 E20.28145
G1 X128.802 Y115.5 E20.65945
G1 X128.762 Y116.238 E20.72929
G1 X128.643 Y116.966 E20.799
G1 X128.445 Y117.678 E20.86883
G1 X128.172 Y118.364 E20.93861
G1 X127.826 Y119.017 E21.00844
G1 X127.412 Y119.629 E21.07827
G1 X126.934 Y120.192 E21.14806
G1 X126.398 Y120.7 E21.21785
G1 X125.81 Y121.147 E21.28765
G1 X125.177 Y121.528 E21.35746
G1 X124.507 Y121.839 E21.42727
G1 X123.807 Y122.075 E21.49708
G1 X123.086 Y122.234 E21.56685
G1 X122.351 Y122.315 E21.63672
G1 X121.977 Y122.325 E21.67208
G1 X117.323 Y122.325 E22.11188
G1 X116.585 Y122.285 E22.18173
G1 X115.857 Y122.166 E22.25144
G1 X115.145 Y121.968 E22.32127
G1 X114.459 Y121.695 E22.39104
G1 X113.806 Y121.349 E22.46088
G1 X113.194 Y120.935 E22.5307
G1 X112.631 Y120.457 E22.6005
G1 X112.123 Y119.921 E22.67028
G1 X111.676 Y119.333 E22.74008
G1 X111.295 Y118.7 E22.8099
G1 X110.984 Y118.03 E22.8797
G1 X110.748 Y117.33 E22.94951
G1 X110.589 Y116.609 E23.01928
G1 X110.508 Y115.874 E23.08916
G1 X110.498 Y115.5 E23.12452
G1 X110.498 Y111.5 E23.50252
G1 X110.538 Y110.762 E23.57236
G1 X110.657 Y110.034 E23.64207
G1 X110.855 Y109.322 E23.71191
G1 X111.128 Y108.636 E23.78168
G1 X111.474 Y107.983 E23.85152
G1 X111.888 Y107.371 E23.92134
G1 X112.366 Y106.808 E23.99113
G0 F4320 X112.712 Y106.955
G1 F1800 X113.244 Y106.471 E24.0591
G1 X113.827 Y106.05 E24.12706
G1 X114.454 Y105.696 E24.1951
G1 X115.115 Y105.413 E24.26305
G1 X115.804 Y105.206 E24.33103
G1 X116.512 Y105.076 E24.39906
G1 X117.323 Y105.025 E24.47585
G1 X121.977 Y105.025 E24.91565
G1 X122.695 Y105.065 E24.98361
G1 X123.405 Y105.184 E25.05164
G1 X124.097 Y105.382 E25.11966
G1 X124.762 Y105.655 E25.18759
G1 X125.394 Y106 E25.25563
G1 X125.983 Y106.413 E25.32361
G1 X126.522 Y106.889 E25.39157
G1 X127.006 Y107.421 E25.45953
G1 X127.427 Y108.004 E25.52749
G1 X127.781 Y108.631 E25.59553
G1 X128.064 Y109.292 E25.66348
G1 X128.271 Y109.981 E25.73147
G1 X128.401 Y110.689 E25.79949
G1 X128.452 Y111.5 E25.87628
G1 X128.452 Y115.5 E26.25428
G1 X128.412 Y116.218 E26.32224
G1 X128.293 Y116.928 E26.39027
G1 X128.095 Y117.62 E26.45829
G1 X127.822 Y118.285 E26.52622
G1 X127.477 Y118.917 E26.59426
G1 X127.064 Y119.506 E26.66224
G1 X126.588 Y120.045 E26.7302
G1 X126.056 Y120.529 E26.79816
G1 X125.473 Y120.95 E26.86612
G1 X124.846 Y121.304 E26.93416
G1 X124.185 Y121.587 E27.00211
G1 X123.496 Y121.794 E27.0701
G1 X122.788 Y121.924 E27.13812
G1 X121.977 Y121.975 E27.21491
G1 X117.323 Y121.975 E27.65472
G1 X116.605 Y121.935 E27.72267
G1 X115.895 Y121.816 E27.7907
G1 X115.203 Y121.618 E27.85872
G1 X114.538 Y121.345 E27.92665
G1 X113.906 Y121 E27.9947
G1 X113.317 Y120.587 E28.06268
G1 X112.778 Y120.111 E28.13063
G1 X112.294 Y119.579 E28.1986
G1 X111.873 Y118.996 E28.26655
G1 X111.519 Y118.369 E28.3346
G1 X111.236 Y117.708 E28.40255
G1 X111.029 Y117.019 E28.47053
G1 X110.899 Y116.311 E28.53856
G1 X110.848 Y115.5 E28.61535
G1 X110.848 Y111.5 E28.99335
G1 X110.888 Y110.782 E29.0613
G1 X111.007 Y110.072 E29.12933
G1 X111.205 Y109.38 E29.19735
G1 X111.478 Y108.715 E29.26528
G1 X111.823 Y108.083 E29.33333
G1 X112.236 Y107.494 E29.40131
G1 X112.712 Y106.955 E29.46926
G0 F4320 X113.056 Y107.106
G1 F1800 X113.585 Y106.648 E29.53538
G1 X114.163 Y106.253 E29.60154
G1 X114.782 Y105.927 E29.66765
G1 X115.434 Y105.673 E29.73378
G1 X116.111 Y105.496 E29.79991
G1 X116.804 Y105.397 E29.86606
G1 X117.323 Y105.375 E29.91515
G1 X121.977 Y105.375 E30.35495
G1 X122.676 Y105.415 E30.42111
G1 X123.365 Y105.534 E30.48719
G1 X124.036 Y105.732 E30.5533
G1 X124.681 Y106.004 E30.61945
G1 X125.29 Y106.348 E30.68555
G1 X125.856 Y106.76 E30.75171
G1 X126.371 Y107.233 E30.81779
G1 X126.829 Y107.762 E30.88391
G1 X127.224 Y108.34 E30.95007
G1 X127.55 Y108.959 E31.01618
G1 X127.804 Y109.611 E31.0823
G1 X127.981 Y110.288 E31.14843
G1 X128.08 Y110.981 E31.21458
G1 X128.102 Y111.5 E31.26367
G1 X128.102 Y115.5 E31.64167
G1 X128.062 Y116.199 E31.70784
G1 X127.943 Y116.888 E31.77391
G1 X127.745 Y117.559 E31.84002
G1 X127.473 Y118.204 E31.90617
G1 X127.129 Y118.813 E31.97227
G1 X126.717 Y119.379 E32.03843
G1 X126.244 Y119.894 E32.10451
G1 X125.715 Y120.352 E32.17063
G1 X125.137 Y120.747 E32.23679
G1 X124.518 Y121.073 E32.3029
G1 X123.866 Y121.327 E32.36902
G1 X123.189 Y121.504 E32.43515
G1 X122.496 Y121.603 E32.5013
G1 X121.977 Y121.625 E32.55039
G1 X117.323 Y121.625 E32.9902
G1 X116.624 Y121.585 E33.05636
G1 X115.935 Y121.466 E33.12243
G1 X115.264 Y121.268 E33.18855
G1 X114.619 Y120.996 E33.2547
G1 X114.01 Y120.652 E33.3208
G1 X113.444 Y120.24 E33.38695
G1 X112.929 Y119.767 E33.45303
G1 X112.471 Y119.238 E33.51915
G1 X112.076 Y118.66 E33.58531
G1 X111.75 Y118.041 E33.65142
G1 X111.496 Y117.389 E33.71755
G1 X111.319 Y116.712 E33.78368
G1 X111.22 Y116.019 E33.84983
G1 X111.198 Y115.5 E33.89892
G1 X111.198 Y111.5 E34.27692
G1 X111.238 Y110.801 E34.34308
G1 X111.357 Y110.112 E34.40916
G1 X111.555 Y109.441 E34.47527
G1 X111.827 Y108.796 E34.54142
G1 X112.171 Y108.187 E34.60752
G1 X112.583 Y107.621 E34.67367
G1 X113.056 Y107.106 E34.73975
G0 F4320 X113.4 Y107.262
G1 F1800 X113.925 Y106.831 E34.80394
G1 X114.497 Y106.464 E34.86817
G1 X115.108 Y106.167 E34.93236
G1 X115.75 Y105.943 E34.99662
G1 X116.413 Y105.797 E35.06078
G1 X117.323 Y105.725 E35.14704
G1 X121.977 Y105.725 E35.58684
G1 X122.655 Y105.765 E35.65102
G1 X123.324 Y105.884 E35.71524
G1 X123.974 Y106.081 E35.77942
G1 X124.597 Y106.353 E35.84366
G1 X125.183 Y106.697 E35.90788
G1 X125.725 Y107.107 E35.9721
G1 X126.215 Y107.577 E36.03626
G1 X126.646 Y108.102 E36.10045
G1 X127.013 Y108.674 E36.16467
G1 X127.31 Y109.285 E36.22887
G1 X127.534 Y109.927 E36.29313
G1 X127.68 Y110.59 E36.35728
G1 X127.752 Y111.5 E36.44355
G1 X127.752 Y115.5 E36.82155
G1 X127.712 Y116.178 E36.88573
G1 X127.593 Y116.847 E36.94994
G1 X127.396 Y117.497 E37.01413
G1 X127.124 Y118.12 E37.07837
G1 X126.78 Y118.706 E37.14258
G1 X126.37 Y119.248 E37.2068
G1 X125.9 Y119.738 E37.27097
G1 X125.375 Y120.169 E37.33516
G1 X124.803 Y120.536 E37.39938
G1 X124.192 Y120.833 E37.46358
G1 X123.55 Y121.057 E37.52783
G1 X122.887 Y121.203 E37.59199
G1 X121.977 Y121.275 E37.67825
G1 X117.323 Y121.275 E38.11806
G1 X116.645 Y121.235 E38.18224
G1 X115.976 Y121.116 E38.24645
G1 X115.326 Y120.919 E38.31063
G1 X114.703 Y120.647 E38.37487
G1 X114.117 Y120.303 E38.43909
G1 X113.575 Y119.893 E38.50331
G1 X113.085 Y119.423 E38.56747
G1 X112.654 Y118.898 E38.63166
G1 X112.287 Y118.326 E38.69589
G1 X111.99 Y117.715 E38.76009
G1 X111.766 Y117.073 E38.82434
G1 X111.62 Y116.41 E38.8885
G1 X111.548 Y115.5 E38.97476
G1 X111.548 Y111.5 E39.35276
G1 X111.588 Y110.822 E39.41694
G1 X111.707 Y110.153 E39.48116
G1 X111.904 Y109.503 E39.54534
G1 X112.176 Y108.88 E39.60958
G1 X112.52 Y108.294 E39.67379
G1 X112.93 Y107.752 E39.73802
G1 X113.4 Y107.262 E39.80218
G0 F4320 X113.743 Y107.424
G1 F1800 X114.264 Y107.02 E39.86448
G1 X114.829 Y106.682 E39.9267
G1 X115.431 Y106.416 E39.98889
G1 X116.061 Y106.224 E40.05113
G1 X116.709 Y106.11 E40.11331
G1 X117.323 Y106.075 E40.17143
G1 X121.977 Y106.075 E40.61123
G1 X122.634 Y106.115 E40.67343
G1 X123.282 Y106.234 E40.73569
G1 X123.91 Y106.431 E40.79789
G1 X124.51 Y106.703 E40.86014
G1 X125.073 Y107.045 E40.92239
G1 X125.59 Y107.453 E40.98463
G1 X126.053 Y107.92 E41.04677
G1 X126.457 Y108.441 E41.10908
G1 X126.795 Y109.006 E41.17129
G1 X127.061 Y109.608 E41.23349
G1 X127.253 Y110.238 E41.29573
G1 X127.367 Y110.886 E41.3579
G1 X127.402 Y111.5 E41.41602
G1 X127.402 Y115.5 E41.79402
G1 X127.362 Y116.157 E41.85622
G1 X127.243 Y116.805 E41.91848
G1 X127.046 Y117.433 E41.98068
G1 X126.774 Y118.033 E42.04293
G1 X126.432 Y118.596 E42.10518
G1 X126.024 Y119.113 E42.16742
G1 X125.557 Y119.576 E42.22957
G1 X125.036 Y119.98 E42.29187
G1 X124.471 Y120.318 E42.35409
G1 X123.869 Y120.584 E42.41628
G1 X123.239 Y120.776 E42.47852
G1 X122.591 Y120.89 E42.5407
G1 X121.977 Y120.925 E42.59881
G1 X117.323 Y120.925 E43.03862
G1 X116.666 Y120.885 E43.10082
G1 X116.018 Y120.766 E43.16308
G1 X115.39 Y120.569 E43.22528
G1 X114.79 Y120.297 E43.28753
G1 X114.227 Y119.955 E43.34978
G1 X113.71 Y119.547 E43.41202
G1 X113.247 Y119.08 E43.47416
G1 X112.843 Y118.559 E43.53647
G1 X112.505 Y117.994 E43.59868
G1 X112.239 Y117.392 E43.66088
G1 X112.047 Y116.762 E43.72312
G1 X111.933 Y116.114 E43.78529
G1 X111.898 Y115.5 E43.84341
G1 X111.898 Y111.5 E44.22141
G1 X111.938 Y110.843 E44.28361
G1 X112.057 Y110.195 E44.34587
G1 X112.254 Y109.567 E44.40807
G1 X112.526 Y108.967 E44.47032
G1 X112.868 Y108.404 E44.53257
G1 X113.276 Y107.887 E44.59481
G1 X113.743 Y107.424 E44.65696
G0 F4320 X113.622 Y108.028
G1 F1800 X114.086 Y107.592 E44.71712
G1 X114.601 Y107.217 E44.77733
G1 X115.158 Y106.91 E44.83743
G1 X115.75 Y106.675 E44.89762
G1 X116.367 Y106.516 E44.95783
G1 X116.999 Y106.435 E45.01804
G1 X117.323 Y106.425 E45.04868
G1 X121.977 Y106.425 E45.48848
G1 X122.613 Y106.465 E45.5487
G1 X123.238 Y106.584 E45.60882
G1 X123.844 Y106.781 E45.66904
G1 X124.42 Y107.052 E45.7292
G1 X124.958 Y107.393 E45.78939
G1 X125.449 Y107.799 E45.8496
G1 X125.885 Y108.263 E45.90976
G1 X126.26 Y108.778 E45.96997
G1 X126.567 Y109.335 E46.03007
G1 X126.802 Y109.927 E46.09026
