;FLAVOR:UltiGCode
;TIME:7215
;MATERIAL:14433
;MATERIAL2:0
;NOZZLE_DIAMETER:0.4
;Generated with Cura_SteamEngine 3.2.1
M82 ;absolute extrusion mode

;LAYER_COUNT:106
;LAYER:0
M107
G0 F4500 X34.95 Y85.952 Z0.27
;TYPE:SKIRT
G1 F1800 X36.612 Y85.263 E0.17002
G1 X37.242 Y85.033 E0.2334
G1 X38.915 Y84.501 E0.3993
G1 X39.572 Y84.323 E0.46362
G1 X41.238 Y83.948 E0.625
G1 X41.964 Y83.82 E0.69466
G1 X43.748 Y83.591 E0.86464
G1 X44.407 Y83.535 E0.92714
G1 X46.166 Y83.458 E1.09352
G1 X46.863 Y83.458 E1.15939
G1 X48.602 Y83.536 E1.32389
G1 X49.261 Y83.593 E1.3864
G1 X51.097 Y83.831 E1.56135
G1 X51.8 Y83.955 E1.62881
G1 X53.36 Y84.303 E1.77985
G1 X54.015 Y84.479 E1.84394
G1 X55.777 Y85.035 E2.01855
G1 X56.442 Y85.278 E2.08545
G1 X58.111 Y85.975 E2.25637
G1 X58.703 Y86.252 E2.31814
G1 X60.183 Y87.02 E2.47571
G1 X60.792 Y87.372 E2.54218
G1 X62.276 Y88.319 E2.70854
G1 X62.824 Y88.702 E2.77172
G1 X64.312 Y89.84 E2.94875
G1 X64.852 Y90.292 E3.01529
G1 X66.075 Y91.414 E3.17214
G1 X66.556 Y91.896 E3.23648
G1 X67.733 Y93.18 E3.40109
G1 X68.171 Y93.701 E3.46541
G1 X69.248 Y95.102 E3.6324
G1 X69.642 Y95.663 E3.69719
G1 X70.602 Y97.166 E3.86572
G1 X70.995 Y97.855 E3.94068
G1 X71.316 Y98.581 E4.01569
G1 X71.563 Y99.335 E4.09067
G1 X71.733 Y100.11 E4.16565
G1 X71.824 Y100.898 E4.24061
G1 X71.835 Y101.692 E4.31565
G1 X71.814 Y101.93 E4.33823
G1 X196.372 Y101.93 E16.10896
G1 X197.164 Y101.97 E16.1839
G1 X197.949 Y102.089 E16.25893
G1 X198.717 Y102.287 E16.33388
G1 X199.462 Y102.562 E16.40892
G1 X200.175 Y102.909 E16.48386
G1 X200.85 Y103.327 E16.55889
G1 X201.479 Y103.81 E16.63383
G1 X201.94 Y104.237 E16.69321
G1 X202.043 Y104.34 E16.70698
G1 X202.576 Y104.928 E16.78197
G1 X203.046 Y105.567 E16.85693
G1 X203.449 Y106.251 E16.93196
G1 X203.782 Y106.971 E17.00692
G1 X204.04 Y107.721 E17.08187
G1 X204.222 Y108.494 E17.15692
G1 X204.325 Y109.28 E17.23183
G1 X204.35 Y109.908 E17.29122
G1 X204.35 Y113.092 E17.59211
G1 X204.31 Y113.884 E17.66705
G1 X204.191 Y114.669 E17.74208
G1 X203.993 Y115.437 E17.81703
G1 X203.718 Y116.182 E17.89208
G1 X203.371 Y116.895 E17.96701
G1 X202.953 Y117.57 E18.04204
G1 X202.47 Y118.199 E18.11698
G1 X202.043 Y118.66 E18.17636
G1 X201.94 Y118.763 E18.19013
G1 X201.352 Y119.296 E18.26512
G1 X200.713 Y119.766 E18.34008
G1 X200.029 Y120.169 E18.41511
G1 X199.309 Y120.502 E18.49007
G1 X198.559 Y120.76 E18.56502
G1 X197.786 Y120.942 E18.64007
G1 X197 Y121.045 E18.71498
G1 X196.372 Y121.07 E18.77437
G1 X71.816 Y121.07 E30.54492
G1 X71.823 Y121.135 E30.55109
G1 X71.83 Y121.929 E30.62613
G1 X71.757 Y122.719 E30.7011
G1 X71.604 Y123.498 E30.77613
G1 X71.374 Y124.257 E30.85107
G1 X71.069 Y124.989 E30.92601
G1 X70.614 Y125.812 E31.01488
G1 X69.69 Y127.27 E31.178
G1 X69.282 Y127.854 E31.24532
G1 X68.17 Y129.301 E31.41778
G1 X67.717 Y129.838 E31.48417
G1 X66.555 Y131.099 E31.64621
G1 X66.08 Y131.573 E31.70962
G1 X64.761 Y132.78 E31.87858
G1 X64.254 Y133.206 E31.94116
G1 X62.908 Y134.244 E32.10179
G1 X62.318 Y134.657 E32.16984
G1 X60.791 Y135.626 E32.34075
G1 X60.218 Y135.957 E32.40328
G1 X58.654 Y136.774 E32.57003
G1 X58.012 Y137.074 E32.637
G1 X56.364 Y137.754 E32.80547
G1 X55.748 Y137.978 E32.86741
G1 X54.123 Y138.495 E33.02856
G1 X53.316 Y138.706 E33.10738
G1 X51.174 Y139.145 E33.31401
G1 X50.612 Y139.239 E33.36786
G1 X49.324 Y139.407 E33.4906
G1 X48.636 Y139.466 E33.55586
G1 X46.803 Y139.543 E33.72923
G1 X46.127 Y139.542 E33.79311
G1 X44.35 Y139.464 E33.9612
G1 X43.677 Y139.406 E34.02503
G1 X42.073 Y139.197 E34.17789
G1 X41.39 Y139.077 E34.24343
G1 X39.546 Y138.669 E34.4219
G1 X38.873 Y138.489 E34.48773
G1 X37.2 Y137.96 E34.65355
G1 X36.548 Y137.722 E34.71914
G1 X34.926 Y137.047 E34.88516
G1 X34.324 Y136.765 E34.94798
G1 X32.804 Y135.976 E35.10982
G1 X32.193 Y135.624 E35.17645
G1 X30.712 Y134.678 E35.34252
G1 X30.161 Y134.292 E35.4061
G1 X28.728 Y133.194 E35.5767
G1 X28.185 Y132.737 E35.64377
G1 X26.89 Y131.545 E35.81009
G1 X26.422 Y131.077 E35.87264
G1 X25.257 Y129.808 E36.03543
G1 X24.809 Y129.275 E36.10123
G1 X23.723 Y127.859 E36.26987
G1 X23.327 Y127.291 E36.3353
G1 X22.351 Y125.756 E36.5072
G1 X22.018 Y125.182 E36.56991
G1 X21.23 Y123.676 E36.73053
G1 X20.928 Y123.029 E36.798
G1 X20.269 Y121.432 E36.96126
G1 X20.041 Y120.803 E37.02449
G1 X19.497 Y119.083 E37.19496
G1 X19.321 Y118.432 E37.25869
G1 X18.938 Y116.725 E37.42401
G1 X18.811 Y115.999 E37.49366
G1 X18.579 Y114.184 E37.66657
G1 X18.52 Y113.478 E37.73352
G1 X18.455 Y111.729 E37.89892
G1 X18.458 Y111.089 E37.9594
G1 X18.535 Y109.346 E38.12427
G1 X18.594 Y108.672 E38.18821
G1 X18.821 Y106.938 E38.35347
G1 X18.948 Y106.225 E38.42191
G1 X19.323 Y104.565 E38.58273
G1 X19.5 Y103.912 E38.64667
G1 X20.029 Y102.25 E38.81149
G1 X20.259 Y101.622 E38.87469
G1 X20.966 Y99.917 E39.04912
G1 X21.244 Y99.318 E39.11152
G1 X22.052 Y97.754 E39.27788
G1 X22.413 Y97.127 E39.34625
G1 X23.312 Y95.721 E39.50396
G1 X23.704 Y95.163 E39.5684
G1 X24.821 Y93.71 E39.74159
G1 X25.271 Y93.176 E39.80758
G1 X26.469 Y91.875 E39.97471
G1 X26.94 Y91.404 E40.03766
G1 X28.214 Y90.236 E40.20099
G1 X28.746 Y89.79 E40.26659
G1 X30.158 Y88.708 E40.4347
G1 X30.725 Y88.312 E40.50005
G1 X32.167 Y87.396 E40.66149
G1 X32.769 Y87.05 E40.72711
G1 X34.345 Y86.234 E40.89482
G1 X34.95 Y85.952 E40.9579
G0 F4500 X35.084 Y86.276
G1 F1800 X36.746 Y85.587 E41.12792
G1 X37.348 Y85.367 E41.18849
G1 X39.021 Y84.835 E41.35439
G1 X39.649 Y84.665 E41.41587
G1 X41.315 Y84.29 E41.57724
G1 X42.009 Y84.167 E41.64385
G1 X43.793 Y83.938 E41.81382
G1 X44.422 Y83.884 E41.87348
G1 X46.181 Y83.807 E42.03986
G1 X46.847 Y83.808 E42.1028
G1 X48.586 Y83.886 E42.2673
G1 X49.216 Y83.94 E42.32706
G1 X51.052 Y84.178 E42.50201
G1 X51.723 Y84.297 E42.56641
G1 X53.283 Y84.645 E42.71745
G1 X53.909 Y84.813 E42.7787
G1 X55.671 Y85.369 E42.9533
G1 X56.307 Y85.601 E43.01728
G1 X57.976 Y86.298 E43.1882
G1 X58.542 Y86.563 E43.24726
G1 X60.022 Y87.331 E43.40483
G1 X60.604 Y87.667 E43.46834
G1 X62.088 Y88.614 E43.6347
G1 X62.611 Y88.98 E43.69502
G1 X64.099 Y90.118 E43.87204
G1 X64.615 Y90.55 E43.93564
G1 X65.838 Y91.672 E44.09248
G1 X66.298 Y92.132 E44.15396
G1 X67.475 Y93.416 E44.31856
G1 X67.894 Y93.915 E44.38014
G1 X68.971 Y95.316 E44.54713
G1 X69.347 Y95.851 E44.60892
G1 X70.307 Y97.354 E44.77746
G1 X70.69 Y98.029 E44.8508
G1 X71.002 Y98.739 E44.92408
G1 X71.239 Y99.477 E44.99733
G1 X71.399 Y100.236 E45.07064
G1 X71.48 Y101.008 E45.14399
G1 X71.48 Y101.783 E45.21723
G1 X71.43 Y102.28 E45.26443
G1 X196.372 Y102.28 E57.07145
G1 X197.147 Y102.32 E57.14478
G1 X197.913 Y102.439 E57.21804
G1 X198.663 Y102.637 E57.29134
G1 X199.389 Y102.911 E57.36467
G1 X200.082 Y103.258 E57.43791
G1 X200.736 Y103.675 E57.51121
G1 X201.344 Y104.157 E57.58453
G1 X201.693 Y104.484 E57.62973
G1 X201.796 Y104.587 E57.64349
G1 X202.315 Y105.163 E57.71676
G1 X202.773 Y105.789 E57.79006
G1 X203.163 Y106.46 E57.8634
G1 X203.483 Y107.166 E57.93665
G1 X203.728 Y107.902 E58.00996
G1 X203.896 Y108.66 E58.08333
G1 X203.985 Y109.43 E58.15658
G1 X204 Y109.908 E58.20177
G1 X204 Y113.092 E58.50266
G1 X203.96 Y113.867 E58.57599
G1 X203.841 Y114.633 E58.64925
G1 X203.643 Y115.383 E58.72255
G1 X203.369 Y116.109 E58.79588
G1 X203.022 Y116.802 E58.86912
G1 X202.605 Y117.456 E58.94242
G1 X202.123 Y118.064 E59.01574
G1 X201.796 Y118.413 E59.06093
G1 X201.693 Y118.516 E59.0747
G1 X201.117 Y119.035 E59.14797
G1 X200.491 Y119.493 E59.22127
G1 X199.82 Y119.883 E59.29461
G1 X199.114 Y120.203 E59.36786
G1 X198.378 Y120.448 E59.44116
G1 X197.62 Y120.616 E59.51453
G1 X196.85 Y120.705 E59.58778
G1 X196.372 Y120.72 E59.63298
G1 X71.432 Y120.72 E71.43981
G1 X71.485 Y121.417 E71.50586
G1 X71.463 Y122.193 E71.57922
G1 X71.362 Y122.962 E71.65252
G1 X71.182 Y123.716 E71.72577
G1 X70.926 Y124.448 E71.79906
G1 X70.596 Y125.15 E71.87236
G1 X70.318 Y125.625 E71.92437
G1 X69.394 Y127.083 E72.08749
G1 X69.005 Y127.64 E72.15169
G1 X67.893 Y129.087 E72.32415
G1 X67.46 Y129.601 E72.38766
G1 X66.298 Y130.862 E72.5497
G1 X65.844 Y131.314 E72.61024
G1 X64.525 Y132.521 E72.7792
G1 X64.04 Y132.929 E72.83909
G1 X62.694 Y133.967 E72.99972
G1 X62.131 Y134.362 E73.06471
G1 X60.604 Y135.331 E73.23561
G1 X60.056 Y135.647 E73.29539
G1 X58.492 Y136.464 E73.46214
G1 X57.878 Y136.75 E73.52615
G1 X56.23 Y137.43 E73.69462
G1 X55.641 Y137.645 E73.75388
G1 X54.016 Y138.162 E73.91502
G1 X53.246 Y138.363 E73.99023
G1 X51.104 Y138.802 E74.19685
G1 X50.566 Y138.892 E74.2484
G1 X49.278 Y139.06 E74.37115
G1 X48.621 Y139.116 E74.43346
G1 X46.788 Y139.193 E74.60683
G1 X46.142 Y139.193 E74.66788
G1 X44.365 Y139.115 E74.83597
G1 X43.723 Y139.059 E74.89687
G1 X42.119 Y138.85 E75.04972
G1 X41.465 Y138.735 E75.11248
G1 X39.621 Y138.327 E75.29095
G1 X38.978 Y138.155 E75.35385
G1 X37.305 Y137.626 E75.51966
G1 X36.683 Y137.398 E75.58227
G1 X35.061 Y136.723 E75.74829
G1 X34.485 Y136.455 E75.80832
G1 X32.965 Y135.666 E75.97016
G1 X32.381 Y135.329 E76.03388
G1 X30.9 Y134.383 E76.19995
G1 X30.374 Y134.014 E76.26067
G1 X28.941 Y132.916 E76.43127
G1 X28.422 Y132.48 E76.49532
G1 X27.127 Y131.288 E76.66165
G1 X26.68 Y130.84 E76.72146
G1 X25.515 Y129.571 E76.88425
G1 X25.087 Y129.062 E76.94709
G1 X24.001 Y127.646 E77.11573
G1 X23.622 Y127.104 E77.17823
G1 X22.646 Y125.569 E77.35012
G1 X22.329 Y125.02 E77.41003
G1 X21.541 Y123.514 E77.57065
G1 X21.252 Y122.895 E77.63521
G1 X20.593 Y121.298 E77.79847
G1 X20.374 Y120.697 E77.85892
G1 X19.83 Y118.977 E78.02939
G1 X19.663 Y118.355 E78.09026
G1 X19.28 Y116.648 E78.25558
G1 X19.158 Y115.955 E78.32207
G1 X18.926 Y114.14 E78.49499
G1 X18.87 Y113.465 E78.55899
G1 X18.805 Y111.716 E78.72439
G1 X18.807 Y111.105 E78.78213
G1 X18.884 Y109.362 E78.947
G1 X18.941 Y108.717 E79.00819
G1 X19.168 Y106.983 E79.17345
G1 X19.289 Y106.302 E79.23881
G1 X19.664 Y104.642 E79.39964
G1 X19.833 Y104.018 E79.46073
G1 X20.362 Y102.356 E79.62555
G1 X20.582 Y101.756 E79.68594
G1 X21.289 Y100.051 E79.86037
G1 X21.554 Y99.479 E79.91994
G1 X22.362 Y97.915 E80.0863
G1 X22.708 Y97.315 E80.15175
G1 X23.607 Y95.909 E80.30946
G1 X23.981 Y95.377 E80.37091
G1 X25.098 Y93.924 E80.5441
G1 X25.528 Y93.413 E80.60722
G1 X26.726 Y92.112 E80.77435
G1 X27.177 Y91.662 E80.83455
G1 X28.451 Y90.494 E80.99788
G1 X28.959 Y90.068 E81.06053
G1 X30.371 Y88.986 E81.22864
G1 X30.913 Y88.607 E81.29114
G1 X32.355 Y87.691 E81.45258
G1 X32.93 Y87.361 E81.51523
G1 X34.506 Y86.545 E81.68294
G1 X35.084 Y86.276 E81.74319
G0 F4500 X35.218 Y86.599
G1 F1800 X36.88 Y85.91 E81.91321
G1 X37.454 Y85.7 E81.97096
G1 X39.127 Y85.168 E82.13686
G1 X39.725 Y85.006 E82.19541
G1 X41.391 Y84.631 E82.35679
G1 X42.053 Y84.514 E82.42032
G1 X43.837 Y84.285 E82.59029
G1 X44.437 Y84.234 E82.64719
G1 X46.196 Y84.157 E82.81358
G1 X46.831 Y84.157 E82.87358
G1 X48.57 Y84.235 E83.03809
G1 X49.171 Y84.288 E83.0951
G1 X51.007 Y84.526 E83.27005
G1 X51.647 Y84.638 E83.33145
G1 X53.207 Y84.986 E83.4825
G1 X53.804 Y85.147 E83.54093
G1 X55.566 Y85.703 E83.71553
G1 X56.172 Y85.924 E83.77649
G1 X57.841 Y86.621 E83.94741
G1 X58.381 Y86.873 E84.00372
G1 X59.861 Y87.641 E84.16129
G1 X60.416 Y87.962 E84.22188
G1 X61.9 Y88.909 E84.38824
G1 X62.399 Y89.258 E84.44578
G1 X63.887 Y90.396 E84.62281
G1 X64.378 Y90.808 E84.68338
G1 X65.601 Y91.93 E84.84022
G1 X66.04 Y92.369 E84.89889
G1 X67.217 Y93.653 E85.06349
G1 X67.616 Y94.128 E85.12212
G1 X68.693 Y95.529 E85.28911
G1 X69.052 Y96.04 E85.34812
G1 X70.012 Y97.543 E85.51666
G1 X70.385 Y98.202 E85.58822
G1 X70.687 Y98.896 E85.65974
G1 X70.914 Y99.619 E85.73135
G1 X71.064 Y100.361 E85.80289
G1 X71.134 Y101.115 E85.87445
G1 X71.125 Y101.873 E85.94609
G1 X71.036 Y102.625 E86.01765
G1 X71.035 Y102.63 E86.01813
G1 X196.372 Y102.63 E97.86247
G1 X197.128 Y102.67 E97.93402
G1 X197.876 Y102.789 E98.00559
G1 X198.607 Y102.987 E98.07716
G1 X199.314 Y103.261 E98.14881
G1 X199.987 Y103.607 E98.22032
G1 X200.62 Y104.023 E98.2919
G1 X201.445 Y104.732 E98.3947
G1 X201.548 Y104.835 E98.40847
G1 X202.055 Y105.398 E98.48006
G1 X202.499 Y106.011 E98.55159
G1 X202.877 Y106.668 E98.62322
G1 X203.183 Y107.36 E98.69472
G1 X203.414 Y108.082 E98.76636
G1 X203.568 Y108.823 E98.83788
G1 X203.65 Y109.908 E98.9407
G1 X203.65 Y113.092 E99.24159
G1 X203.61 Y113.848 E99.31313
G1 X203.491 Y114.596 E99.38471
G1 X203.293 Y115.327 E99.45628
G1 X203.019 Y116.034 E99.52793
G1 X202.673 Y116.707 E99.59944
G1 X202.257 Y117.34 E99.67102
G1 X201.548 Y118.165 E99.77382
G1 X201.445 Y118.268 E99.78758
G1 X200.882 Y118.775 E99.85918
G1 X200.269 Y119.219 E99.93071
G1 X199.612 Y119.597 E100.00234
G1 X198.92 Y119.903 E100.07384
G1 X198.198 Y120.134 E100.14548
G1 X197.457 Y120.288 E100.217
G1 X196.372 Y120.37 E100.31982
G1 X71.024 Y120.37 E112.16521
G1 X71.107 Y120.936 E112.21927
G1 X71.136 Y121.693 E112.29086
G1 X71.086 Y122.449 E112.36245
G1 X70.957 Y123.195 E112.434
G1 X70.749 Y123.923 E112.50555
G1 X70.466 Y124.626 E112.57716
G1 X70.022 Y125.438 E112.66462
G1 X69.098 Y126.896 E112.82774
G1 X68.727 Y127.427 E112.88895
G1 X67.615 Y128.874 E113.06141
G1 X67.202 Y129.364 E113.12196
G1 X66.04 Y130.625 E113.28401
G1 X65.608 Y131.056 E113.34168
G1 X64.289 Y132.263 E113.51063
G1 X63.827 Y132.652 E113.56771
G1 X62.481 Y133.69 E113.72833
G1 X61.943 Y134.066 E113.79036
G1 X60.416 Y135.035 E113.96126
G1 X59.894 Y135.337 E114.01825
G1 X58.33 Y136.154 E114.185
G1 X57.745 Y136.427 E114.24601
G1 X56.097 Y137.107 E114.41448
G1 X55.535 Y137.311 E114.47098
G1 X53.91 Y137.828 E114.63213
G1 X53.176 Y138.02 E114.70382
G1 X51.034 Y138.459 E114.91045
G1 X50.521 Y138.545 E114.95961
G1 X49.233 Y138.713 E115.08235
G1 X48.606 Y138.767 E115.14182
G1 X46.773 Y138.844 E115.31519
G1 X46.157 Y138.843 E115.37341
G1 X44.38 Y138.765 E115.54149
G1 X43.768 Y138.712 E115.59955
G1 X42.164 Y138.503 E115.7524
G1 X41.541 Y138.394 E115.81217
G1 X39.697 Y137.986 E115.99065
G1 X39.084 Y137.821 E116.05064
G1 X37.411 Y137.292 E116.21645
G1 X36.817 Y137.075 E116.27621
G1 X35.195 Y136.4 E116.44223
G1 X34.646 Y136.144 E116.49948
G1 X33.126 Y135.355 E116.66131
G1 X32.57 Y135.034 E116.72198
G1 X31.089 Y134.088 E116.88805
G1 X30.587 Y133.736 E116.94599
G1 X29.154 Y132.638 E117.11659
G1 X28.659 Y132.222 E117.1777
G1 X27.364 Y131.03 E117.34402
G1 X26.938 Y130.603 E117.40102
G1 X25.773 Y129.334 E117.56382
G1 X25.365 Y128.849 E117.62371
G1 X24.279 Y127.433 E117.79234
G1 X23.917 Y126.916 E117.85199
G1 X22.941 Y125.381 E118.02388
G1 X22.639 Y124.857 E118.08104
G1 X21.851 Y123.351 E118.24166
G1 X21.576 Y122.762 E118.30309
G1 X20.917 Y121.165 E118.46635
G1 X20.708 Y120.592 E118.52399
G1 X20.164 Y118.872 E118.69446
G1 X20.004 Y118.279 E118.7525
G1 X19.621 Y116.572 E118.91783
G1 X19.505 Y115.911 E118.98124
G1 X19.273 Y114.096 E119.15416
G1 X19.22 Y113.452 E119.21522
G1 X19.155 Y111.703 E119.38062
G1 X19.157 Y111.12 E119.43571
G1 X19.234 Y109.377 E119.60058
G1 X19.288 Y108.763 E119.65883
G1 X19.515 Y107.029 E119.82409
G1 X19.63 Y106.379 E119.88647
G1 X20.005 Y104.719 E120.04729
G1 X20.167 Y104.124 E120.10557
G1 X20.696 Y102.462 E120.27039
G1 X20.905 Y101.89 E120.32794
G1 X21.612 Y100.185 E120.50237
G1 X21.865 Y99.64 E120.55915
G1 X22.673 Y98.076 E120.7255
G1 X23.003 Y97.504 E120.78791
G1 X23.902 Y96.098 E120.94561
G1 X24.259 Y95.59 E121.00429
G1 X25.376 Y94.137 E121.17748
G1 X25.786 Y93.65 E121.23764
G1 X26.984 Y92.349 E121.40477
G1 X27.413 Y91.92 E121.4621
G1 X28.687 Y90.752 E121.62543
G1 X29.172 Y90.346 E121.68521
G1 X30.584 Y89.264 E121.85331
G1 X31.101 Y88.903 E121.9129
G1 X32.543 Y87.987 E122.07434
G1 X33.091 Y87.671 E122.13412
G1 X34.667 Y86.855 E122.30183
G1 X35.218 Y86.599 E122.35924
G0 F4500 X35.352 Y86.922
G1 F1800 X37.014 Y86.233 E122.52926
G1 X37.56 Y86.034 E122.58418
G1 X39.233 Y85.502 E122.75008
G1 X39.802 Y85.348 E122.80579
G1 X41.468 Y84.973 E122.96716
G1 X42.098 Y84.862 E123.02761
G1 X43.882 Y84.633 E123.19758
G1 X44.453 Y84.584 E123.25174
G1 X46.212 Y84.507 E123.41813
G1 X46.816 Y84.507 E123.47521
G1 X48.555 Y84.585 E123.63971
G1 X49.126 Y84.635 E123.69387
G1 X50.962 Y84.873 E123.86883
G1 X51.571 Y84.98 E123.92726
G1 X53.131 Y85.328 E124.0783
G1 X53.699 Y85.48 E124.13387
G1 X55.461 Y86.036 E124.30847
G1 X56.037 Y86.247 E124.36644
G1 X57.706 Y86.944 E124.53736
G1 X58.22 Y87.184 E124.59097
G1 X59.7 Y87.952 E124.74854
G1 X60.227 Y88.257 E124.80608
