;FLAVOR:UltiGCode
;TIME:3899
;MATERIAL:6852
;MATERIAL2:0
;NOZZLE_DIAMETER:0.4
;Generated with Cura_SteamEngine 2.7.0

;LAYER_COUNT:11
;LAYER:0
M107
G0 F4500 X79.105 Y69.593 Z0.27
;TYPE:SKIRT
G1 F1800 X79.65 Y69.016 E0.075
G1 X80.249 Y68.496 E0.14996
G1 X80.898 Y68.04 E0.22492
G1 X81.59 Y67.651 E0.29994
G1 X82.317 Y67.333 E0.37492
G1 X83.073 Y67.09 E0.44997
G1 X83.849 Y66.925 E0.52494
G1 X84.637 Y66.839 E0.59985
G1 X85.1 Y66.825 E0.64362
G1 X137.9 Y66.825 E5.63322
G1 X138.692 Y66.865 E5.70816
G1 X139.477 Y66.984 E5.78319
G1 X140.245 Y67.182 E5.85814
G1 X140.99 Y67.457 E5.93318
G1 X141.703 Y67.804 E6.00812
G1 X142.378 Y68.222 E6.08315
G1 X143.007 Y68.705 E6.15809
G1 X143.584 Y69.25 E6.23309
G1 X144.104 Y69.849 E6.30805
G1 X144.56 Y70.498 E6.38301
G1 X144.949 Y71.19 E6.45803
G1 X145.267 Y71.917 E6.53301
G1 X145.51 Y72.673 E6.60805
G1 X145.675 Y73.449 E6.68303
G1 X145.761 Y74.237 E6.75793
G1 X145.775 Y74.7 E6.80171
G1 X145.775 Y148.3 E13.75691
G1 X145.735 Y149.092 E13.83185
G1 X145.616 Y149.877 E13.90688
G1 X145.418 Y150.645 E13.98183
G1 X145.143 Y151.39 E14.05687
G1 X144.796 Y152.103 E14.13181
G1 X144.378 Y152.778 E14.20683
G1 X143.895 Y153.407 E14.28178
G1 X143.35 Y153.984 E14.35678
G1 X142.751 Y154.504 E14.43174
G1 X142.102 Y154.96 E14.5067
G1 X141.41 Y155.349 E14.58171
G1 X140.683 Y155.667 E14.6567
G1 X139.927 Y155.91 E14.73174
G1 X139.151 Y156.075 E14.80671
G1 X138.363 Y156.161 E14.88162
G1 X137.9 Y156.175 E14.9254
G1 X85.1 Y156.175 E19.915
G1 X84.308 Y156.135 E19.98994
G1 X83.523 Y156.016 E20.06497
G1 X82.755 Y155.818 E20.13991
G1 X82.01 Y155.543 E20.21496
G1 X81.297 Y155.196 E20.28989
G1 X80.622 Y154.778 E20.36492
G1 X79.993 Y154.295 E20.43987
G1 X79.416 Y153.75 E20.51487
G1 X78.896 Y153.151 E20.58983
G1 X78.44 Y152.502 E20.66479
G1 X78.051 Y151.81 E20.7398
G1 X77.733 Y151.083 E20.81479
G1 X77.49 Y150.327 E20.88983
G1 X77.325 Y149.551 E20.9648
G1 X77.239 Y148.763 E21.03971
G1 X77.225 Y148.3 E21.08348
G1 X77.225 Y74.7 E28.03868
G1 X77.265 Y73.908 E28.11362
G1 X77.384 Y73.123 E28.18865
G1 X77.582 Y72.355 E28.2636
G1 X77.857 Y71.61 E28.33865
G1 X78.204 Y70.897 E28.41358
G1 X78.622 Y70.222 E28.48861
G1 X79.105 Y69.593 E28.56355
G0 F4500 X79.452 Y69.728
G1 F1800 X79.994 Y69.173 E28.63686
G1 X80.59 Y68.676 E28.7102
G1 X81.234 Y68.244 E28.78348
G1 X81.919 Y67.881 E28.85674
G1 X82.638 Y67.589 E28.93007
G1 X83.383 Y67.374 E29.00335
G1 X84.146 Y67.236 E29.07662
G1 X85.1 Y67.175 E29.16696
G1 X137.9 Y67.175 E34.15656
G1 X138.675 Y67.215 E34.2299
G1 X139.441 Y67.334 E34.30315
G1 X140.191 Y67.532 E34.37645
G1 X140.917 Y67.806 E34.44978
G1 X141.61 Y68.153 E34.52302
G1 X142.264 Y68.57 E34.59632
G1 X142.872 Y69.052 E34.66964
G1 X143.427 Y69.594 E34.74295
G1 X143.924 Y70.19 E34.81629
G1 X144.356 Y70.834 E34.88957
G1 X144.719 Y71.519 E34.96283
G1 X145.011 Y72.238 E35.03616
G1 X145.226 Y72.983 E35.10944
G1 X145.364 Y73.746 E35.18271
G1 X145.425 Y74.7 E35.27305
G1 X145.425 Y148.3 E42.22825
G1 X145.385 Y149.075 E42.30158
G1 X145.266 Y149.841 E42.37484
G1 X145.068 Y150.591 E42.44814
G1 X144.794 Y151.317 E42.52147
G1 X144.447 Y152.01 E42.59471
G1 X144.03 Y152.664 E42.66801
G1 X143.548 Y153.272 E42.74133
G1 X143.006 Y153.827 E42.81464
G1 X142.41 Y154.324 E42.88797
G1 X141.766 Y154.756 E42.96126
G1 X141.081 Y155.119 E43.03452
G1 X140.362 Y155.411 E43.10785
G1 X139.617 Y155.626 E43.18113
G1 X138.854 Y155.764 E43.2544
G1 X137.9 Y155.825 E43.34474
G1 X85.1 Y155.825 E48.33434
G1 X84.325 Y155.785 E48.40767
G1 X83.559 Y155.666 E48.48093
G1 X82.809 Y155.468 E48.55423
G1 X82.083 Y155.194 E48.62756
G1 X81.39 Y154.847 E48.7008
G1 X80.736 Y154.43 E48.7741
G1 X80.128 Y153.948 E48.84742
G1 X79.573 Y153.406 E48.92073
G1 X79.076 Y152.81 E48.99406
G1 X78.644 Y152.166 E49.06734
G1 X78.281 Y151.481 E49.1406
G1 X77.989 Y150.762 E49.21394
G1 X77.774 Y150.017 E49.28721
G1 X77.636 Y149.254 E49.36049
G1 X77.575 Y148.3 E49.45083
G1 X77.575 Y74.7 E56.40603
G1 X77.615 Y73.925 E56.47936
G1 X77.734 Y73.159 E56.55262
G1 X77.932 Y72.409 E56.62592
G1 X78.206 Y71.683 E56.69925
G1 X78.553 Y70.99 E56.77249
G1 X78.97 Y70.336 E56.84579
G1 X79.452 Y69.728 E56.91911
G0 F4500 X79.798 Y69.866
G1 F1800 X80.337 Y69.334 E56.99067
G1 X80.929 Y68.862 E57.06222
G1 X81.568 Y68.455 E57.13382
G1 X82.246 Y68.117 E57.20541
G1 X82.955 Y67.853 E57.2769
G1 X83.689 Y67.665 E57.3485
G1 X84.438 Y67.556 E57.42003
G1 X85.1 Y67.525 E57.48266
G1 X137.9 Y67.525 E62.47226
G1 X138.656 Y67.565 E62.5438
G1 X139.404 Y67.684 E62.61538
G1 X140.135 Y67.882 E62.68694
G1 X140.842 Y68.156 E62.7586
G1 X141.515 Y68.502 E62.83011
G1 X142.148 Y68.918 E62.90169
G1 X142.734 Y69.398 E62.97327
G1 X143.266 Y69.937 E63.04484
G1 X143.738 Y70.529 E63.11639
G1 X144.145 Y71.168 E63.18798
G1 X144.483 Y71.846 E63.25957
G1 X144.747 Y72.555 E63.33107
G1 X144.935 Y73.289 E63.40267
G1 X145.044 Y74.038 E63.4742
G1 X145.075 Y74.7 E63.53682
G1 X145.075 Y148.3 E70.49202
G1 X145.035 Y149.056 E70.56357
G1 X144.916 Y149.804 E70.63514
G1 X144.718 Y150.535 E70.70671
G1 X144.444 Y151.242 E70.77836
G1 X144.098 Y151.915 E70.84987
G1 X143.682 Y152.548 E70.92145
G1 X143.202 Y153.134 E70.99304
G1 X142.663 Y153.666 E71.0646
G1 X142.071 Y154.138 E71.13615
G1 X141.432 Y154.545 E71.20775
G1 X140.754 Y154.883 E71.27934
G1 X140.045 Y155.147 E71.35083
G1 X139.311 Y155.335 E71.42244
G1 X138.562 Y155.444 E71.49396
G1 X137.9 Y155.475 E71.55659
G1 X85.1 Y155.475 E76.54619
G1 X84.344 Y155.435 E76.61773
G1 X83.596 Y155.316 E76.68931
G1 X82.865 Y155.118 E76.76087
G1 X82.158 Y154.844 E76.83253
G1 X81.485 Y154.498 E76.90404
G1 X80.852 Y154.082 E76.97562
G1 X80.266 Y153.602 E77.0472
G1 X79.734 Y153.063 E77.11877
G1 X79.262 Y152.471 E77.19032
G1 X78.855 Y151.832 E77.26191
G1 X78.517 Y151.154 E77.3335
G1 X78.253 Y150.445 E77.405
G1 X78.065 Y149.711 E77.4766
G1 X77.956 Y148.962 E77.54813
G1 X77.925 Y148.3 E77.61075
G1 X77.925 Y74.7 E84.56595
G1 X77.965 Y73.944 E84.6375
G1 X78.084 Y73.196 E84.70907
G1 X78.282 Y72.465 E84.78064
G1 X78.556 Y71.758 E84.85229
G1 X78.902 Y71.085 E84.9238
G1 X79.318 Y70.452 E84.99538
G1 X79.798 Y69.866 E85.06697
G0 F4500 X80.143 Y70.008
G1 F1800 X80.679 Y69.5 E85.13675
G1 X81.267 Y69.053 E85.20655
G1 X81.9 Y68.672 E85.27637
G1 X82.57 Y68.361 E85.34618
G1 X83.27 Y68.125 E85.41598
G1 X83.991 Y67.966 E85.48576
G1 X84.726 Y67.885 E85.55563
G1 X85.1 Y67.875 E85.59099
G1 X137.9 Y67.875 E90.58059
G1 X138.638 Y67.915 E90.65043
G1 X139.366 Y68.034 E90.72014
G1 X140.078 Y68.232 E90.78998
G1 X140.764 Y68.505 E90.85975
G1 X141.417 Y68.851 E90.92959
G1 X142.029 Y69.265 E90.99941
G1 X142.592 Y69.743 E91.0692
G1 X143.1 Y70.279 E91.13899
G1 X143.547 Y70.867 E91.20879
G1 X143.928 Y71.5 E91.27861
G1 X144.239 Y72.17 E91.34841
G1 X144.475 Y72.87 E91.41822
G1 X144.634 Y73.591 E91.48799
G1 X144.715 Y74.326 E91.55787
G1 X144.725 Y74.7 E91.59322
G1 X144.725 Y148.3 E98.54842
G1 X144.685 Y149.038 E98.61827
G1 X144.566 Y149.766 E98.68798
G1 X144.368 Y150.478 E98.75781
G1 X144.095 Y151.164 E98.82759
G1 X143.749 Y151.817 E98.89742
G1 X143.335 Y152.429 E98.96725
G1 X142.857 Y152.992 E99.03704
G1 X142.321 Y153.5 E99.10682
G1 X141.733 Y153.947 E99.17662
G1 X141.1 Y154.328 E99.24644
G1 X140.43 Y154.639 E99.31625
G1 X139.73 Y154.875 E99.38605
G1 X139.009 Y155.034 E99.45583
G1 X138.274 Y155.115 E99.5257
G1 X137.9 Y155.125 E99.56106
G1 X85.1 Y155.125 E104.55066
G1 X84.362 Y155.085 E104.6205
G1 X83.634 Y154.966 E104.69021
G1 X82.922 Y154.768 E104.76005
G1 X82.236 Y154.495 E104.82982
G1 X81.583 Y154.149 E104.89966
G1 X80.971 Y153.735 E104.96948
G1 X80.408 Y153.257 E105.03927
G1 X79.9 Y152.721 E105.10906
G1 X79.453 Y152.133 E105.17886
G1 X79.072 Y151.5 E105.24868
G1 X78.761 Y150.83 E105.31848
G1 X78.525 Y150.13 E105.38829
G1 X78.366 Y149.409 E105.45806
G1 X78.285 Y148.674 E105.52794
G1 X78.275 Y148.3 E105.56329
G1 X78.275 Y74.7 E112.51849
G1 X78.315 Y73.962 E112.58834
G1 X78.434 Y73.234 E112.65805
G1 X78.632 Y72.522 E112.72788
G1 X78.905 Y71.836 E112.79766
G1 X79.251 Y71.183 E112.86749
G1 X79.665 Y70.571 E112.93732
G1 X80.143 Y70.008 E113.00711
G0 F4500 X80.489 Y70.155
G1 F1800 X81.021 Y69.671 E113.07507
G1 X81.604 Y69.25 E113.14303
G1 X82.231 Y68.896 E113.21107
G1 X82.892 Y68.613 E113.27902
G1 X83.581 Y68.406 E113.34701
G1 X84.289 Y68.276 E113.41503
G1 X85.1 Y68.225 E113.49182
G1 X137.9 Y68.225 E118.48142
G1 X138.618 Y68.265 E118.54938
G1 X139.328 Y68.384 E118.61741
G1 X140.02 Y68.582 E118.68543
G1 X140.685 Y68.855 E118.75336
G1 X141.317 Y69.2 E118.8214
G1 X141.906 Y69.613 E118.88938
G1 X142.445 Y70.089 E118.95734
G1 X142.929 Y70.621 E119.02531
G1 X143.35 Y71.204 E119.09326
G1 X143.704 Y71.831 E119.16131
G1 X143.987 Y72.492 E119.22925
G1 X144.194 Y73.181 E119.29724
G1 X144.324 Y73.889 E119.36526
G1 X144.375 Y74.7 E119.44205
G1 X144.375 Y148.3 E126.39725
G1 X144.335 Y149.018 E126.46521
G1 X144.216 Y149.728 E126.53324
G1 X144.018 Y150.42 E126.60126
G1 X143.745 Y151.085 E126.66919
G1 X143.4 Y151.717 E126.73724
G1 X142.987 Y152.306 E126.80522
G1 X142.511 Y152.845 E126.87317
G1 X141.979 Y153.329 E126.94114
G1 X141.396 Y153.75 E127.00909
G1 X140.769 Y154.104 E127.07714
G1 X140.108 Y154.387 E127.14508
G1 X139.419 Y154.594 E127.21307
G1 X138.711 Y154.724 E127.28109
G1 X137.9 Y154.775 E127.35789
G1 X85.1 Y154.775 E132.34749
G1 X84.382 Y154.735 E132.41544
G1 X83.672 Y154.616 E132.48347
G1 X82.98 Y154.418 E132.55149
G1 X82.315 Y154.145 E132.61942
G1 X81.683 Y153.8 E132.68747
G1 X81.094 Y153.387 E132.75545
G1 X80.555 Y152.911 E132.8234
G1 X80.071 Y152.379 E132.89137
G1 X79.65 Y151.796 E132.95932
G1 X79.296 Y151.169 E133.02737
G1 X79.013 Y150.508 E133.09532
G1 X78.806 Y149.819 E133.1633
G1 X78.676 Y149.111 E133.23133
G1 X78.625 Y148.3 E133.30812
G1 X78.625 Y74.7 E140.26332
G1 X78.665 Y73.982 E140.33127
G1 X78.784 Y73.272 E140.3993
G1 X78.982 Y72.58 E140.46732
G1 X79.255 Y71.915 E140.53525
G1 X79.6 Y71.283 E140.6033
G1 X80.013 Y70.694 E140.67128
G1 X80.489 Y70.155 E140.73923
G0 F4500 X80.833 Y70.306
G1 F1800 X81.362 Y69.848 E140.80535
G1 X81.94 Y69.453 E140.87151
G1 X82.559 Y69.127 E140.93762
G1 X83.211 Y68.873 E141.00375
G1 X83.888 Y68.696 E141.06988
G1 X84.581 Y68.597 E141.13603
G1 X85.1 Y68.575 E141.18512
G1 X137.9 Y68.575 E146.17472
G1 X138.599 Y68.615 E146.24088
G1 X139.288 Y68.734 E146.30696
G1 X139.959 Y68.932 E146.37307
G1 X140.604 Y69.204 E146.43922
G1 X141.213 Y69.548 E146.50532
G1 X141.779 Y69.96 E146.57147
G1 X142.294 Y70.433 E146.63755
G1 X142.752 Y70.962 E146.70368
G1 X143.147 Y71.54 E146.76983
G1 X143.473 Y72.159 E146.83595
G1 X143.727 Y72.811 E146.90207
G1 X143.904 Y73.488 E146.9682
G1 X144.003 Y74.181 E147.03435
G1 X144.025 Y74.7 E147.08344
G1 X144.025 Y148.3 E154.03864
G1 X143.985 Y148.999 E154.1048
G1 X143.866 Y149.688 E154.17088
G1 X143.668 Y150.359 E154.23699
G1 X143.396 Y151.004 E154.30314
G1 X143.052 Y151.613 E154.36924
G1 X142.64 Y152.179 E154.43539
G1 X142.167 Y152.694 E154.50147
G1 X141.638 Y153.152 E154.5676
G1 X141.06 Y153.547 E154.63375
G1 X140.441 Y153.873 E154.69987
G1 X139.789 Y154.127 E154.76599
G1 X139.112 Y154.304 E154.83212
G1 X138.419 Y154.403 E154.89827
G1 X137.9 Y154.425 E154.94736
G1 X85.1 Y154.425 E159.93696
G1 X84.401 Y154.385 E160.00312
G1 X83.712 Y154.266 E160.0692
G1 X83.041 Y154.068 E160.13531
G1 X82.396 Y153.796 E160.20146
G1 X81.787 Y153.452 E160.26756
G1 X81.221 Y153.04 E160.33372
G1 X80.706 Y152.567 E160.3998
G1 X80.248 Y152.038 E160.46592
G1 X79.853 Y151.46 E160.53208
G1 X79.527 Y150.841 E160.59819
G1 X79.273 Y150.189 E160.66431
G1 X79.096 Y149.512 E160.73044
G1 X78.997 Y148.819 E160.79659
G1 X78.975 Y148.3 E160.84568
G1 X78.975 Y74.7 E167.80088
G1 X79.015 Y74.001 E167.86705
G1 X79.134 Y73.312 E167.93312
G1 X79.332 Y72.641 E167.99923
G1 X79.604 Y71.996 E168.06538
G1 X79.948 Y71.387 E168.13148
G1 X80.36 Y70.821 E168.19764
G1 X80.833 Y70.306 E168.26372
G0 F4500 X81.177 Y70.462
G1 F1800 X81.702 Y70.031 E168.32791
G1 X82.274 Y69.664 E168.39213
G1 X82.885 Y69.367 E168.45633
G1 X83.527 Y69.143 E168.52058
G1 X84.19 Y68.997 E168.58474
G1 X85.1 Y68.925 E168.671
G1 X137.9 Y68.925 E173.6606
G1 X138.578 Y68.965 E173.72479
G1 X139.247 Y69.084 E173.789
G1 X139.897 Y69.281 E173.85318
G1 X140.52 Y69.553 E173.91742
G1 X141.106 Y69.897 E173.98164
G1 X141.648 Y70.307 E174.04586
G1 X142.138 Y70.777 E174.11002
G1 X142.569 Y71.302 E174.17421
G1 X142.936 Y71.874 E174.23843
G1 X143.233 Y72.485 E174.30263
G1 X143.457 Y73.127 E174.36689
G1 X143.603 Y73.79 E174.43104
G1 X143.675 Y74.7 E174.51731
G1 X143.675 Y148.3 E181.47251
G1 X143.635 Y148.978 E181.53669
G1 X143.516 Y149.647 E181.6009
G1 X143.319 Y150.297 E181.66509
G1 X143.047 Y150.92 E181.72933
G1 X142.703 Y151.506 E181.79354
G1 X142.293 Y152.048 E181.85776
G1 X141.823 Y152.538 E181.92193
G1 X141.298 Y152.969 E181.98612
G1 X140.726 Y153.336 E182.05034
G1 X140.115 Y153.633 E182.11454
G1 X139.473 Y153.857 E182.17879
G1 X138.81 Y154.003 E182.24295
G1 X137.9 Y154.075 E182.32921
G1 X85.1 Y154.075 E187.31881
G1 X84.422 Y154.035 E187.383
G1 X83.753 Y153.916 E187.44721
G1 X83.103 Y153.719 E187.51139
G1 X82.48 Y153.447 E187.57563
G1 X81.894 Y153.103 E187.63985
G1 X81.352 Y152.693 E187.70407
G1 X80.862 Y152.223 E187.76823
G1 X80.431 Y151.698 E187.83242
G1 X80.064 Y151.126 E187.89664
G1 X79.767 Y150.515 E187.96084
G1 X79.543 Y149.873 E188.0251
G1 X79.397 Y149.21 E188.08925
G1 X79.325 Y148.3 E188.17552
G1 X79.325 Y74.7 E195.13072
G1 X79.365 Y74.022 E195.1949
G1 X79.484 Y73.353 E195.25911
G1 X79.681 Y72.703 E195.3233
G1 X79.953 Y72.08 E195.38754
G1 X80.297 Y71.494 E195.45175
G1 X80.707 Y70.952 E195.51597
G1 X81.177 Y70.462 E195.58014
G0 F4500 X81.52 Y70.624
G1 F1800 X82.041 Y70.22 E195.64244
G1 X82.606 Y69.882 E195.70466
G1 X83.208 Y69.616 E195.76685
G1 X83.838 Y69.424 E195.82909
G1 X84.486 Y69.31 E195.89127
G1 X85.1 Y69.275 E195.94938
G1 X137.9 Y69.275 E200.93898
G1 X138.557 Y69.315 E201.00118
G1 X139.205 Y69.434 E201.06344
G1 X139.833 Y69.631 E201.12564
G1 X140.433 Y69.903 E201.1879
G1 X140.996 Y70.245 E201.25015
G1 X141.513 Y70.653 E201.31238
G1 X141.976 Y71.12 E201.37453
G1 X142.38 Y71.641 E201.43683
G1 X142.718 Y72.206 E201.49905
G1 X142.984 Y72.808 E201.56124
G1 X143.176 Y73.438 E201.62348
G1 X143.29 Y74.086 E201.68566
G1 X143.325 Y74.7 E201.74378
G1 X143.325 Y148.3 E208.69898
G1 X143.285 Y148.957 E208.76118
G1 X143.166 Y149.605 E208.82344
G1 X142.969 Y150.233 E208.88564
G1 X142.697 Y150.833 E208.94789
G1 X142.355 Y151.396 E209.01014
G1 X141.947 Y151.913 E209.07238
G1 X141.48 Y152.376 E209.13452
G1 X140.959 Y152.78 E209.19682
G1 X140.394 Y153.118 E209.25904
G1 X139.792 Y153.384 E209.32124
G1 X139.162 Y153.576 E209.38348
G1 X138.514 Y153.69 E209.44565
G1 X137.9 Y153.725 E209.50377
G1 X85.1 Y153.725 E214.49337
G1 X84.443 Y153.685 E214.55557
G1 X83.795 Y153.566 E214.61783
G1 X83.167 Y153.369 E214.68003
G1 X82.567 Y153.097 E214.74228
G1 X82.004 Y152.755 E214.80453
G1 X81.487 Y152.347 E214.86677
G1 X81.024 Y151.88 E214.92891
G1 X80.62 Y151.359 E214.99122
G1 X80.282 Y150.794 E215.05343
G1 X80.016 Y150.192 E215.11563
G1 X79.824 Y149.562 E215.17787
G1 X79.71 Y148.914 E215.24004
G1 X79.675 Y148.3 E215.29816
G1 X79.675 Y74.7 E222.25336
G1 X79.715 Y74.043 E222.31556
G1 X79.834 Y73.395 E222.37782
G1 X80.031 Y72.767 E222.44002
G1 X80.303 Y72.167 E222.50227
G1 X80.645 Y71.604 E222.56453
G1 X81.053 Y71.087 E222.62676
G1 X81.52 Y70.624 E222.68891
G0 F4500 X81.863 Y70.792
G1 F1800 X82.378 Y70.417 E222.74911
G1 X82.935 Y70.11 E222.80921
G1 X83.527 Y69.875 E222.8694
G1 X84.144 Y69.716 E222.92961
G1 X84.776 Y69.635 E222.98983
G1 X85.1 Y69.625 E223.02046
G1 X137.9 Y69.625 E228.01006
G1 X138.536 Y69.665 E228.07028
G1 X139.161 Y69.784 E228.1304
G1 X139.767 Y69.981 E228.19062
G1 X140.343 Y70.252 E228.25078
G1 X140.881 Y70.593 E228.31097
G1 X141.372 Y70.999 E228.37118
G1 X141.808 Y71.463 E228.43135
G1 X142.183 Y71.978 E228.49155
G1 X142.49 Y72.535 E228.55165
G1 X142.725 Y73.127 E228.61184
G1 X142.884 Y73.744 E228.67205
G1 X142.965 Y74.376 E228.73226
G1 X142.975 Y74.7 E228.7629
G1 X142.975 Y148.3 E235.7181
G1 X142.935 Y148.936 E235.77832
G1 X142.816 Y149.561 E235.83844
G1 X142.619 Y150.167 E235.89866
G1 X142.348 Y150.743 E235.95881
G1 X142.007 Y151.281 E236.01901
G1 X141.601 Y151.772 E236.07921
