;FLAVOR:UltiGCode
;TIME:2716
;MATERIAL:4419
;MATERIAL2:0
;NOZZLE_DIAMETER:0.4
;Generated with Cura_SteamEngine 2.7.0

;LAYER_COUNT:273
;LAYER:0
M107
G0 F4500 X90.783 Y92.361 Z0.27
;TYPE:SKIRT
G1 F1800 X91.368 Y91.825 E0.07498
G1 X92.003 Y91.35 E0.14992
G1 X92.684 Y90.941 E0.22499
G1 X93.401 Y90.603 E0.29989
G1 X94.15 Y90.339 E0.37494
G1 X94.921 Y90.151 E0.44994
G1 X95.707 Y90.042 E0.52492
G1 X96.389 Y90.012 E0.58944
G1 X98.086 Y90.011 E0.7498
G1 X98.879 Y90.051 E0.82484
G1 X99.663 Y90.17 E0.89977
G1 X100.432 Y90.367 E0.97479
G1 X101.177 Y90.641 E1.0498
G1 X101.89 Y90.988 E1.12474
G1 X102.565 Y91.405 E1.19972
G1 X103.194 Y91.888 E1.27466
G1 X103.618 Y92.277 E1.32903
G1 X103.959 Y92.613 E1.37427
G1 X104.496 Y93.197 E1.44925
G1 X104.97 Y93.833 E1.5242
G1 X105.379 Y94.513 E1.59919
G1 X105.717 Y95.231 E1.67419
G1 X105.981 Y95.979 E1.74915
G1 X106.168 Y96.75 E1.82412
G1 X106.277 Y97.536 E1.89911
G1 X106.307 Y98.222 E1.96399
G1 X106.307 Y99.97 E2.12918
G1 X106.346 Y99.969 E2.13287
G1 X126.505 Y99.97 E4.03789
G1 X127.298 Y100.01 E4.11293
G1 X128.082 Y100.13 E4.18788
G1 X128.851 Y100.327 E4.26289
G1 X129.595 Y100.602 E4.33785
G1 X130.308 Y100.949 E4.41279
G1 X130.983 Y101.367 E4.48781
G1 X131.612 Y101.851 E4.56281
G1 X132.073 Y102.277 E4.62213
G1 X132.293 Y102.497 E4.65153
G1 X132.826 Y103.085 E4.72653
G1 X133.296 Y103.724 E4.80149
G1 X133.699 Y104.408 E4.87651
G1 X134.032 Y105.128 E4.95148
G1 X134.29 Y105.878 E5.02643
G1 X134.472 Y106.651 E5.10148
G1 X134.575 Y107.437 E5.17639
G1 X134.6 Y108.065 E5.23578
G1 X134.6 Y114.935 E5.885
G1 X134.56 Y115.727 E5.95993
G1 X134.441 Y116.512 E6.03496
G1 X134.243 Y117.28 E6.10991
G1 X133.968 Y118.025 E6.18496
G1 X133.621 Y118.738 E6.25989
G1 X133.203 Y119.413 E6.33492
G1 X132.72 Y120.042 E6.40987
G1 X132.293 Y120.503 E6.46925
G1 X132.073 Y120.723 E6.49865
G1 X131.485 Y121.256 E6.57364
G1 X130.846 Y121.726 E6.64861
G1 X130.162 Y122.129 E6.72363
G1 X129.442 Y122.462 E6.79859
G1 X128.692 Y122.72 E6.87354
G1 X127.919 Y122.902 E6.94859
G1 X127.133 Y123.005 E7.0235
G1 X126.505 Y123.03 E7.0829
G1 X106.342 Y123.03 E8.9883
G1 X106.307 Y123.028 E8.99161
G1 X106.307 Y124.773 E9.15651
G1 X106.267 Y125.565 E9.23145
G1 X106.148 Y126.35 E9.30648
G1 X105.95 Y127.118 E9.38143
G1 X105.675 Y127.863 E9.45648
G1 X105.328 Y128.576 E9.53141
G1 X104.91 Y129.251 E9.60644
G1 X104.427 Y129.88 E9.68138
G1 X104 Y130.341 E9.74076
G1 X103.66 Y130.681 E9.7862
G1 X103.072 Y131.214 E9.8612
G1 X102.433 Y131.684 E9.93616
G1 X101.749 Y132.087 E10.01118
G1 X101.029 Y132.42 E10.08615
G1 X100.279 Y132.678 E10.1611
G1 X99.506 Y132.86 E10.23615
G1 X98.72 Y132.963 E10.31106
G1 X98.092 Y132.988 E10.37045
G1 X96.408 Y132.988 E10.52959
G1 X95.616 Y132.948 E10.60453
G1 X94.831 Y132.829 E10.67956
G1 X94.063 Y132.631 E10.75451
G1 X93.318 Y132.356 E10.82955
G1 X92.605 Y132.009 E10.90449
G1 X91.93 Y131.591 E10.97952
G1 X91.301 Y131.108 E11.05446
G1 X90.84 Y130.681 E11.11384
G1 X90.5 Y130.341 E11.15928
G1 X89.967 Y129.753 E11.23428
G1 X89.497 Y129.114 E11.30924
G1 X89.094 Y128.43 E11.38426
G1 X88.761 Y127.71 E11.45922
G1 X88.503 Y126.96 E11.53418
G1 X88.321 Y126.187 E11.60922
G1 X88.218 Y125.401 E11.68413
G1 X88.193 Y124.773 E11.74353
G1 X88.193 Y122.527 E11.95577
G1 X88.233 Y121.735 E12.03071
G1 X88.352 Y120.95 E12.10574
G1 X88.55 Y120.182 E12.18069
G1 X88.825 Y119.437 E12.25574
G1 X89.172 Y118.724 E12.33067
G1 X89.59 Y118.049 E12.4057
G1 X89.654 Y117.966 E12.4156
G1 X89.501 Y117.706 E12.44411
G1 X89.168 Y116.986 E12.51908
G1 X88.91 Y116.236 E12.59403
G1 X88.728 Y115.463 E12.66907
G1 X88.625 Y114.677 E12.74399
G1 X88.6 Y114.049 E12.80338
G1 X88.6 Y108.951 E13.28514
G1 X88.64 Y108.159 E13.36008
G1 X88.759 Y107.374 E13.43511
G1 X88.957 Y106.606 E13.51006
G1 X89.232 Y105.861 E13.5851
G1 X89.579 Y105.148 E13.66004
G1 X89.654 Y105.027 E13.67349
G1 X89.413 Y104.685 E13.71303
G1 X89.023 Y103.994 E13.78801
G1 X88.705 Y103.267 E13.863
G1 X88.461 Y102.512 E13.93798
G1 X88.295 Y101.736 E14.01297
G1 X88.207 Y100.948 E14.0879
G1 X88.193 Y100.475 E14.13262
G1 X88.193 Y98.218 E14.3459
G1 X88.233 Y97.426 E14.42084
G1 X88.352 Y96.641 E14.49587
G1 X88.55 Y95.873 E14.57082
G1 X88.825 Y95.128 E14.64587
G1 X89.172 Y94.415 E14.7208
G1 X89.59 Y93.74 E14.79583
G1 X90.073 Y93.111 E14.87077
G1 X90.457 Y92.692 E14.92448
G1 X90.783 Y92.361 E14.96838
G0 F4500 X91.033 Y92.607
G1 F1800 X91.605 Y92.083 E15.04169
G1 X92.228 Y91.621 E15.11499
G1 X92.895 Y91.225 E15.18829
G1 X93.599 Y90.9 E15.26157
G1 X94.333 Y90.65 E15.33484
G1 X95.089 Y90.476 E15.40815
G1 X95.859 Y90.381 E15.48147
G1 X96.39 Y90.362 E15.53168
G1 X98.087 Y90.361 E15.69205
G1 X98.861 Y90.401 E15.76529
G1 X99.628 Y90.52 E15.83863
G1 X100.378 Y90.717 E15.91191
G1 X101.104 Y90.99 E15.98521
G1 X101.797 Y91.337 E16.05845
G1 X102.452 Y91.753 E16.13178
G1 X103.06 Y92.235 E16.2051
G1 X103.373 Y92.526 E16.24548
G1 X103.714 Y92.862 E16.29072
G1 X104.237 Y93.434 E16.36397
G1 X104.699 Y94.057 E16.43726
G1 X105.095 Y94.724 E16.51057
G1 X105.419 Y95.429 E16.58389
G1 X105.67 Y96.163 E16.65719
G1 X105.843 Y96.919 E16.73048
G1 X105.938 Y97.689 E16.8038
G1 X105.957 Y98.222 E16.8542
G1 X105.957 Y100.346 E17.05492
G1 X106.346 Y100.319 E17.09177
G1 X126.505 Y100.32 E18.99679
G1 X127.28 Y100.36 E19.07013
G1 X128.046 Y100.48 E19.1434
G1 X128.796 Y100.677 E19.21668
G1 X129.522 Y100.951 E19.29001
G1 X130.216 Y101.298 E19.36333
G1 X130.87 Y101.715 E19.43663
G1 X131.478 Y102.197 E19.50995
G1 X131.826 Y102.524 E19.55507
G1 X132.046 Y102.744 E19.58448
G1 X132.565 Y103.32 E19.65774
G1 X133.023 Y103.946 E19.73104
G1 X133.413 Y104.617 E19.80439
G1 X133.733 Y105.323 E19.87764
G1 X133.978 Y106.059 E19.95094
G1 X134.146 Y106.817 E20.02431
G1 X134.235 Y107.587 E20.09756
G1 X134.25 Y108.065 E20.14275
G1 X134.25 Y114.935 E20.79197
G1 X134.21 Y115.71 E20.8653
G1 X134.091 Y116.476 E20.93856
G1 X133.893 Y117.226 E21.01186
G1 X133.619 Y117.952 E21.08519
G1 X133.272 Y118.645 E21.15843
G1 X132.855 Y119.299 E21.23173
G1 X132.373 Y119.907 E21.30505
G1 X132.046 Y120.256 E21.35024
G1 X131.826 Y120.476 E21.37965
G1 X131.25 Y120.995 E21.45291
G1 X130.624 Y121.453 E21.52621
G1 X129.953 Y121.843 E21.59956
G1 X129.247 Y122.163 E21.67281
G1 X128.511 Y122.408 E21.74611
G1 X127.753 Y122.576 E21.81948
G1 X126.983 Y122.665 E21.89273
G1 X126.505 Y122.68 E21.93792
G1 X106.342 Y122.68 E23.84333
G1 X105.957 Y122.66 E23.87976
G1 X105.957 Y124.773 E24.07944
G1 X105.917 Y125.548 E24.15277
G1 X105.798 Y126.314 E24.22603
G1 X105.6 Y127.064 E24.29933
G1 X105.326 Y127.79 E24.37266
G1 X104.979 Y128.483 E24.4459
G1 X104.562 Y129.137 E24.5192
G1 X104.08 Y129.745 E24.59252
G1 X103.753 Y130.094 E24.63771
G1 X103.413 Y130.434 E24.68315
G1 X102.837 Y130.953 E24.75642
G1 X102.211 Y131.411 E24.82972
G1 X101.54 Y131.801 E24.90306
G1 X100.834 Y132.121 E24.97631
G1 X100.098 Y132.366 E25.04962
G1 X99.34 Y132.534 E25.12299
G1 X98.57 Y132.623 E25.19624
G1 X98.092 Y132.638 E25.24143
G1 X96.408 Y132.638 E25.40057
G1 X95.633 Y132.598 E25.4739
G1 X94.867 Y132.479 E25.54716
G1 X94.117 Y132.281 E25.62046
G1 X93.391 Y132.007 E25.69379
G1 X92.698 Y131.66 E25.76703
G1 X92.044 Y131.243 E25.84033
G1 X91.436 Y130.761 E25.91365
G1 X91.087 Y130.434 E25.95884
G1 X90.747 Y130.094 E26.00428
G1 X90.228 Y129.518 E26.07755
G1 X89.77 Y128.892 E26.15085
G1 X89.38 Y128.221 E26.22419
G1 X89.06 Y127.515 E26.29744
G1 X88.815 Y126.779 E26.37075
G1 X88.647 Y126.021 E26.44412
G1 X88.558 Y125.251 E26.51737
G1 X88.543 Y124.773 E26.56256
G1 X88.543 Y122.527 E26.77481
G1 X88.583 Y121.752 E26.84814
G1 X88.702 Y120.986 E26.9214
G1 X88.9 Y120.236 E26.9947
G1 X89.174 Y119.51 E27.06803
G1 X89.521 Y118.817 E27.14127
G1 X89.938 Y118.163 E27.21457
G1 X90.074 Y117.991 E27.23529
G1 X89.787 Y117.497 E27.28928
G1 X89.467 Y116.791 E27.36253
G1 X89.222 Y116.055 E27.43583
G1 X89.054 Y115.297 E27.5092
G1 X88.965 Y114.527 E27.58245
G1 X88.95 Y114.049 E27.62764
G1 X88.95 Y108.951 E28.1094
G1 X88.99 Y108.176 E28.18274
G1 X89.109 Y107.41 E28.25599
G1 X89.307 Y106.66 E28.3293
G1 X89.581 Y105.934 E28.40263
G1 X89.928 Y105.241 E28.47587
G1 X90.07 Y105.018 E28.50085
G1 X90.05 Y104.993 E28.50388
G1 X89.617 Y104.35 E28.57713
G1 X89.253 Y103.665 E28.65044
G1 X88.96 Y102.946 E28.72381
G1 X88.744 Y102.202 E28.79702
G1 X88.605 Y101.439 E28.87031
G1 X88.543 Y100.475 E28.9616
G1 X88.543 Y98.218 E29.17488
G1 X88.583 Y97.443 E29.24822
G1 X88.702 Y96.677 E29.32147
G1 X88.9 Y95.927 E29.39478
G1 X89.174 Y95.201 E29.46811
G1 X89.521 Y94.508 E29.54135
G1 X89.938 Y93.854 E29.61464
G1 X90.42 Y93.246 E29.68796
G1 X90.707 Y92.938 E29.72775
G1 X91.033 Y92.607 E29.77165
G0 F4500 X91.282 Y92.852
G1 F1800 X91.841 Y92.341 E29.84322
G1 X92.451 Y91.892 E29.9148
G1 X93.105 Y91.51 E29.98637
G1 X93.795 Y91.199 E30.05789
G1 X94.515 Y90.962 E30.12953
G1 X95.255 Y90.803 E30.20105
G1 X96.008 Y90.722 E30.27262
G1 X96.39 Y90.712 E30.30873
G1 X98.087 Y90.711 E30.4691
G1 X98.843 Y90.751 E30.54064
G1 X99.591 Y90.87 E30.61222
G1 X100.322 Y91.067 E30.68376
G1 X101.029 Y91.34 E30.75538
G1 X101.702 Y91.686 E30.82689
G1 X102.336 Y92.101 E30.8985
G1 X103.127 Y92.775 E30.9967
G1 X103.468 Y93.111 E31.04194
G1 X103.979 Y93.67 E31.11351
G1 X104.427 Y94.28 E31.18503
G1 X104.809 Y94.934 E31.25661
G1 X105.121 Y95.625 E31.32825
G1 X105.357 Y96.344 E31.39977
G1 X105.516 Y97.085 E31.47139
G1 X105.597 Y97.838 E31.54295
G1 X105.607 Y98.222 E31.57925
G1 X105.607 Y100.472 E31.79188
G1 X105.594 Y100.709 E31.81431
G1 X106.346 Y100.669 E31.88547
G1 X126.505 Y100.67 E33.7905
G1 X127.262 Y100.71 E33.86214
G1 X128.01 Y100.83 E33.93373
G1 X128.741 Y101.027 E34.00527
G1 X129.447 Y101.301 E34.07684
G1 X130.12 Y101.647 E34.14835
G1 X130.753 Y102.063 E34.21993
G1 X131.578 Y102.772 E34.32272
G1 X131.798 Y102.992 E34.35212
G1 X132.305 Y103.555 E34.42372
G1 X132.749 Y104.168 E34.49525
G1 X133.127 Y104.825 E34.56688
G1 X133.433 Y105.517 E34.63838
G1 X133.664 Y106.239 E34.71002
G1 X133.818 Y106.98 E34.78154
G1 X133.9 Y108.065 E34.88436
G1 X133.9 Y114.935 E35.53358
G1 X133.86 Y115.691 E35.60512
G1 X133.741 Y116.439 E35.67669
G1 X133.543 Y117.17 E35.74826
G1 X133.269 Y117.877 E35.81992
G1 X132.923 Y118.55 E35.89143
G1 X132.507 Y119.183 E35.96301
G1 X131.798 Y120.008 E36.0658
G1 X131.578 Y120.228 E36.09521
G1 X131.015 Y120.735 E36.1668
G1 X130.402 Y121.179 E36.23833
G1 X129.745 Y121.557 E36.30996
G1 X129.053 Y121.863 E36.38146
G1 X128.331 Y122.094 E36.4531
G1 X127.59 Y122.248 E36.52462
G1 X126.505 Y122.33 E36.62744
G1 X106.342 Y122.33 E38.53285
G1 X105.596 Y122.291 E38.60344
G1 X105.607 Y122.526 E38.62567
G1 X105.607 Y124.773 E38.83801
G1 X105.567 Y125.529 E38.90956
G1 X105.448 Y126.277 E38.98113
G1 X105.25 Y127.008 E39.0527
G1 X104.976 Y127.715 E39.12435
G1 X104.63 Y128.388 E39.19586
G1 X104.214 Y129.021 E39.26744
G1 X103.505 Y129.846 E39.37024
G1 X103.165 Y130.186 E39.41568
G1 X102.602 Y130.693 E39.48728
G1 X101.989 Y131.137 E39.5588
G1 X101.332 Y131.515 E39.63043
G1 X100.64 Y131.821 E39.70194
G1 X99.918 Y132.052 E39.77357
G1 X99.177 Y132.206 E39.84509
G1 X98.092 Y132.288 E39.94792
G1 X96.408 Y132.288 E40.10706
G1 X95.652 Y132.248 E40.1786
G1 X94.904 Y132.129 E40.25017
G1 X94.173 Y131.931 E40.32174
G1 X93.466 Y131.657 E40.39339
G1 X92.793 Y131.311 E40.46491
G1 X92.16 Y130.895 E40.53649
G1 X91.335 Y130.186 E40.63928
G1 X90.995 Y129.846 E40.68472
G1 X90.488 Y129.283 E40.75632
G1 X90.044 Y128.67 E40.82785
G1 X89.666 Y128.013 E40.89947
G1 X89.36 Y127.321 E40.97098
G1 X89.129 Y126.599 E41.04261
G1 X88.975 Y125.858 E41.11413
G1 X88.893 Y124.773 E41.21696
G1 X88.893 Y122.527 E41.42921
G1 X88.933 Y121.771 E41.50075
G1 X89.052 Y121.023 E41.57232
G1 X89.25 Y120.292 E41.64389
G1 X89.524 Y119.585 E41.71554
G1 X89.87 Y118.912 E41.78706
G1 X90.286 Y118.279 E41.85864
G1 X90.502 Y118.016 E41.8908
G1 X90.451 Y117.946 E41.89898
G1 X90.073 Y117.289 E41.97061
G1 X89.767 Y116.597 E42.04211
G1 X89.536 Y115.875 E42.11375
G1 X89.382 Y115.134 E42.18527
G1 X89.3 Y114.049 E42.28809
G1 X89.3 Y108.951 E42.76986
G1 X89.34 Y108.195 E42.8414
G1 X89.459 Y107.447 E42.91297
G1 X89.657 Y106.716 E42.98454
G1 X89.931 Y106.009 E43.05619
G1 X90.277 Y105.336 E43.12771
G1 X90.504 Y104.99 E43.16681
G1 X90.235 Y104.653 E43.20756
G1 X89.827 Y104.015 E43.27912
G1 X89.489 Y103.338 E43.35063
G1 X89.224 Y102.628 E43.42225
G1 X89.035 Y101.895 E43.49378
G1 X88.924 Y101.146 E43.56534
G1 X88.893 Y100.475 E43.62881
G1 X88.893 Y98.218 E43.8421
G1 X88.933 Y97.462 E43.91364
G1 X89.052 Y96.714 E43.98522
G1 X89.25 Y95.983 E44.05678
G1 X89.524 Y95.276 E44.12844
G1 X89.87 Y94.603 E44.19995
G1 X90.286 Y93.97 E44.27153
G1 X90.956 Y93.183 E44.3692
G1 X91.282 Y92.852 E44.4131
G0 F4500 X91.531 Y93.098
G1 F1800 X92.077 Y92.6 E44.48294
G1 X92.674 Y92.165 E44.55274
G1 X93.314 Y91.796 E44.62256
G1 X93.99 Y91.499 E44.69233
G1 X94.695 Y91.277 E44.76218
G1 X95.419 Y91.132 E44.83196
G1 X96.39 Y91.062 E44.92395
G1 X98.087 Y91.061 E45.08432
G1 X98.825 Y91.101 E45.15416
G1 X99.554 Y91.22 E45.22397
G1 X100.265 Y91.417 E45.29369
G1 X100.952 Y91.69 E45.36355
G1 X101.605 Y92.035 E45.43334
G1 X102.216 Y92.449 E45.50308
G1 X102.881 Y93.024 E45.58616
G1 X103.222 Y93.36 E45.6314
G1 X103.72 Y93.907 E45.70131
G1 X104.155 Y94.503 E45.77103
G1 X104.523 Y95.144 E45.84088
G1 X104.82 Y95.82 E45.91066
G1 X105.042 Y96.524 E45.98041
G1 X105.187 Y97.249 E46.05028
G1 X105.257 Y98.222 E46.14247
G1 X105.257 Y100.472 E46.35509
G1 X105.222 Y101.115 E46.41595
G1 X105.885 Y101.035 E46.47906
G1 X106.346 Y101.019 E46.52265
G1 X126.505 Y101.02 E48.42767
G1 X127.243 Y101.06 E48.49752
G1 X127.972 Y101.179 E48.56732
G1 X128.684 Y101.377 E48.63716
G1 X129.37 Y101.65 E48.70693
G1 X130.022 Y101.996 E48.77668
G1 X130.634 Y102.411 E48.84656
G1 X131.331 Y103.019 E48.93396
G1 X131.551 Y103.239 E48.96336
G1 X132.044 Y103.789 E49.03316
G1 X132.475 Y104.389 E49.10297
G1 X132.839 Y105.032 E49.1728
G1 X133.131 Y105.71 E49.24256
G1 X133.348 Y106.416 E49.31236
G1 X133.487 Y107.142 E49.38221
G1 X133.55 Y108.065 E49.46964
G1 X133.55 Y114.935 E50.11885
G1 X133.51 Y115.673 E50.18869
G1 X133.391 Y116.401 E50.2584
G1 X133.193 Y117.113 E50.32824
G1 X132.92 Y117.799 E50.39801
G1 X132.574 Y118.452 E50.46785
G1 X132.16 Y119.064 E50.53767
G1 X131.551 Y119.761 E50.62514
G1 X131.331 Y119.981 E50.65454
G1 X130.781 Y120.474 E50.72434
G1 X130.181 Y120.905 E50.79415
G1 X129.538 Y121.269 E50.86398
G1 X128.86 Y121.561 E50.93374
G1 X128.154 Y121.778 E51.00353
G1 X127.428 Y121.917 E51.07339
G1 X126.505 Y121.98 E51.16081
G1 X106.342 Y121.98 E53.06622
G1 X105.604 Y121.94 E53.13606
G1 X105.217 Y121.877 E53.17311
G1 X105.247 Y122.149 E53.19897
G1 X105.257 Y122.526 E53.23461
G1 X105.257 Y124.773 E53.44695
G1 X105.217 Y125.511 E53.5168
G1 X105.098 Y126.239 E53.58651
G1 X104.9 Y126.951 E53.65634
G1 X104.627 Y127.637 E53.72611
G1 X104.281 Y128.29 E53.79595
G1 X103.867 Y128.902 E53.86577
G1 X103.258 Y129.599 E53.95324
G1 X102.918 Y129.939 E53.99868
G1 X102.368 Y130.432 E54.06848
G1 X101.768 Y130.863 E54.13829
G1 X101.125 Y131.227 E54.20812
G1 X100.447 Y131.519 E54.27788
G1 X99.741 Y131.736 E54.34767
G1 X99.015 Y131.875 E54.41753
G1 X98.092 Y131.938 E54.50495
G1 X96.408 Y131.938 E54.66409
G1 X95.67 Y131.898 E54.73393
G1 X94.942 Y131.779 E54.80364
G1 X94.23 Y131.581 E54.87348
G1 X93.544 Y131.308 E54.94325
G1 X92.891 Y130.962 E55.01309
G1 X92.279 Y130.548 E55.08291
G1 X91.582 Y129.939 E55.17038
G1 X91.242 Y129.599 E55.21582
G1 X90.749 Y129.049 E55.28562
G1 X90.318 Y128.449 E55.35543
G1 X89.954 Y127.806 E55.42525
G1 X89.662 Y127.128 E55.49501
G1 X89.445 Y126.422 E55.56481
G1 X89.306 Y125.696 E55.63466
G1 X89.243 Y124.773 E55.72209
G1 X89.243 Y122.527 E55.93434
G1 X89.283 Y121.789 E56.00418
G1 X89.402 Y121.061 E56.07389
G1 X89.6 Y120.349 E56.14373
G1 X89.873 Y119.663 E56.2135
G1 X90.219 Y119.01 E56.28333
G1 X90.633 Y118.398 E56.35316
G1 X90.945 Y118.031 E56.39868
G1 X90.725 Y117.725 E56.43429
G1 X90.361 Y117.082 E56.50412
G1 X90.069 Y116.404 E56.57388
G1 X89.852 Y115.698 E56.64368
G1 X89.713 Y114.972 E56.71353
G1 X89.65 Y114.049 E56.80096
G1 X89.65 Y108.951 E57.28272
G1 X89.69 Y108.213 E57.35256
G1 X89.809 Y107.485 E57.42227
G1 X90.007 Y106.773 E57.49211
G1 X90.28 Y106.087 E57.56188
G1 X90.626 Y105.434 E57.63171
G1 X90.939 Y104.971 E57.68453
