;FLAVOR:UltiGCode
;TIME:4766
;MATERIAL:3898
;MATERIAL2:0
;NOZZLE_DIAMETER:0.4
;Generated with Cura_SteamEngine 3.2.1
M82 ;absolute extrusion mode

;LAYER_COUNT:300
;LAYER:0
M107
G0 F4800 X91.685 Y91.198 Z0.27
;TYPE:SKIRT
G1 F1800 X93.005 Y89.989 E0.16915
G1 X93.53 Y89.548 E0.23395
G1 X94.948 Y88.46 E0.40285
G1 X95.511 Y88.066 E0.46779
G1 X97.018 Y87.106 E0.63664
G1 X97.612 Y86.763 E0.70146
G1 X99.2 Y85.936 E0.87065
G1 X99.819 Y85.647 E0.93521
G1 X101.47 Y84.962 E1.10413
G1 X102.122 Y84.725 E1.16968
G1 X103.827 Y84.188 E1.33861
G1 X104.487 Y84.011 E1.40318
G1 X106.235 Y83.623 E1.57239
G1 X106.915 Y83.503 E1.63764
G1 X108.688 Y83.27 E1.80663
G1 X109.37 Y83.21 E1.87133
G1 X111.156 Y83.132 E2.04027
G1 X111.844 Y83.132 E2.10528
G1 X113.63 Y83.21 E2.27422
G1 X114.312 Y83.27 E2.33892
G1 X116.085 Y83.503 E2.50791
G1 X116.765 Y83.623 E2.57316
G1 X118.513 Y84.011 E2.74237
G1 X119.173 Y84.188 E2.80694
G1 X120.878 Y84.725 E2.97587
G1 X121.53 Y84.962 E3.04143
G1 X123.181 Y85.647 E3.21034
G1 X123.801 Y85.936 E3.27498
G1 X125.387 Y86.762 E3.44397
G1 X125.979 Y87.105 E3.50862
G1 X127.488 Y88.066 E3.67769
G1 X128.052 Y88.46 E3.7427
G1 X129.47 Y89.548 E3.9116
G1 X129.995 Y89.989 E3.9764
G1 X131.314 Y91.197 E4.14542
G1 X131.802 Y91.685 E4.21063
G1 X133.011 Y93.005 E4.37979
G1 X133.452 Y93.53 E4.44458
G1 X134.54 Y94.948 E4.61348
G1 X134.934 Y95.511 E4.67842
G1 X135.894 Y97.018 E4.84727
G1 X136.237 Y97.612 E4.91209
G1 X137.064 Y99.2 E5.08129
G1 X137.353 Y99.819 E5.14585
G1 X138.038 Y101.47 E5.31476
G1 X138.275 Y102.122 E5.38032
G1 X138.812 Y103.827 E5.54924
G1 X138.989 Y104.486 E5.61373
G1 X139.377 Y106.233 E5.78284
G1 X139.497 Y106.913 E5.84809
G1 X139.73 Y108.685 E6.01699
G1 X139.79 Y109.369 E6.08188
G1 X139.868 Y111.156 E6.25091
G1 X139.868 Y111.842 E6.31574
G1 X139.79 Y113.629 E6.48477
G1 X139.73 Y114.312 E6.54956
G1 X139.497 Y116.085 E6.71855
G1 X139.377 Y116.765 E6.7838
G1 X138.989 Y118.513 E6.95301
G1 X138.813 Y119.171 E7.01737
G1 X138.277 Y120.874 E7.18609
G1 X138.039 Y121.529 E7.25195
G1 X137.353 Y123.182 E7.42107
G1 X137.064 Y123.801 E7.48563
G1 X136.238 Y125.387 E7.65462
G1 X135.896 Y125.978 E7.71914
G1 X134.936 Y127.486 E7.88808
G1 X134.54 Y128.051 E7.95328
G1 X133.451 Y129.47 E8.12231
G1 X133.011 Y129.995 E8.18704
G1 X131.803 Y131.314 E8.35606
G1 X131.315 Y131.802 E8.42128
G1 X129.995 Y133.011 E8.59044
G1 X129.47 Y133.452 E8.65523
G1 X128.052 Y134.54 E8.82413
G1 X127.489 Y134.934 E8.88907
G1 X125.982 Y135.894 E9.05792
G1 X125.388 Y136.237 E9.12274
G1 X123.8 Y137.064 E9.29193
G1 X123.181 Y137.353 E9.35649
G1 X121.53 Y138.038 E9.52541
G1 X120.878 Y138.275 E9.59097
G1 X119.173 Y138.812 E9.75989
G1 X118.513 Y138.989 E9.82446
G1 X116.765 Y139.377 E9.99367
G1 X116.085 Y139.497 E10.05892
G1 X114.312 Y139.73 E10.22791
G1 X113.63 Y139.79 E10.29261
G1 X111.844 Y139.868 E10.46155
G1 X111.156 Y139.868 E10.52656
G1 X109.37 Y139.79 E10.6955
G1 X108.688 Y139.73 E10.7602
G1 X106.915 Y139.497 E10.92919
G1 X106.235 Y139.377 E10.99444
G1 X104.487 Y138.989 E11.16365
G1 X103.827 Y138.812 E11.22822
G1 X102.122 Y138.275 E11.39715
G1 X101.47 Y138.038 E11.46271
G1 X99.819 Y137.353 E11.63162
G1 X99.2 Y137.064 E11.69618
G1 X97.612 Y136.237 E11.86537
G1 X97.018 Y135.894 E11.93019
G1 X95.511 Y134.934 E12.09905
G1 X94.948 Y134.54 E12.16398
G1 X93.53 Y133.452 E12.33288
G1 X93.005 Y133.011 E12.39768
G1 X91.685 Y131.802 E12.56683
G1 X91.197 Y131.314 E12.63205
G1 X89.989 Y129.995 E12.80107
G1 X89.549 Y129.47 E12.8658
G1 X88.46 Y128.051 E13.03484
G1 X88.064 Y127.486 E13.10004
G1 X87.104 Y125.978 E13.26897
G1 X86.762 Y125.387 E13.3335
G1 X85.936 Y123.801 E13.50248
G1 X85.647 Y123.182 E13.56704
G1 X84.961 Y121.529 E13.73616
G1 X84.723 Y120.874 E13.80202
G1 X84.187 Y119.171 E13.97074
G1 X84.011 Y118.513 E14.03511
G1 X83.623 Y116.765 E14.20431
G1 X83.503 Y116.085 E14.26956
G1 X83.27 Y114.312 E14.43855
G1 X83.211 Y113.63 E14.50324
G1 X83.133 Y111.845 E14.67209
G1 X83.132 Y111.158 E14.73701
G1 X83.21 Y109.371 E14.90604
G1 X83.27 Y108.688 E14.97083
G1 X83.503 Y106.915 E15.13982
G1 X83.623 Y106.235 E15.20507
G1 X84.011 Y104.487 E15.37428
G1 X84.187 Y103.829 E15.43865
G1 X84.723 Y102.126 E15.60736
G1 X84.961 Y101.471 E15.67322
G1 X85.647 Y99.818 E15.84235
G1 X85.936 Y99.199 E15.9069
G1 X86.762 Y97.613 E16.07589
G1 X87.104 Y97.022 E16.14042
G1 X88.064 Y95.514 E16.30935
G1 X88.46 Y94.949 E16.37455
G1 X89.549 Y93.53 E16.54358
G1 X89.989 Y93.005 E16.60832
G1 X91.197 Y91.686 E16.77734
G1 X91.685 Y91.198 E16.84255
G0 F4800 X91.921 Y91.456
G1 F1800 X93.241 Y90.247 E17.01171
G1 X93.743 Y89.826 E17.07362
G1 X95.161 Y88.738 E17.24252
G1 X95.699 Y88.361 E17.3046
G1 X97.206 Y87.401 E17.47346
G1 X97.773 Y87.074 E17.53531
G1 X99.361 Y86.247 E17.70451
G1 X99.953 Y85.97 E17.76627
G1 X101.604 Y85.285 E17.93519
G1 X102.227 Y85.059 E17.99781
G1 X103.932 Y84.522 E18.16674
G1 X104.562 Y84.353 E18.22838
G1 X106.31 Y83.965 E18.39759
G1 X106.961 Y83.85 E18.46006
G1 X108.734 Y83.617 E18.62905
G1 X109.386 Y83.56 E18.6909
G1 X111.172 Y83.482 E18.85983
G1 X111.828 Y83.482 E18.92183
G1 X113.614 Y83.56 E19.09076
G1 X114.266 Y83.617 E19.15261
G1 X116.039 Y83.85 E19.3216
G1 X116.69 Y83.965 E19.38407
G1 X118.438 Y84.353 E19.55328
G1 X119.068 Y84.522 E19.61492
G1 X120.773 Y85.059 E19.78384
G1 X121.396 Y85.285 E19.84647
G1 X123.047 Y85.97 E20.01539
G1 X123.639 Y86.247 E20.07715
G1 X125.225 Y87.073 E20.24614
G1 X125.791 Y87.4 E20.30791
G1 X127.3 Y88.361 E20.47697
G1 X127.839 Y88.738 E20.53913
G1 X129.257 Y89.826 E20.70803
G1 X129.758 Y90.247 E20.76987
G1 X131.077 Y91.455 E20.93889
G1 X131.544 Y91.921 E21.00124
G1 X132.753 Y93.241 E21.17039
G1 X133.174 Y93.743 E21.23231
G1 X134.262 Y95.161 E21.40121
G1 X134.639 Y95.699 E21.46329
G1 X135.599 Y97.206 E21.63214
G1 X135.926 Y97.773 E21.69399
G1 X136.753 Y99.361 E21.86319
G1 X137.03 Y99.953 E21.92496
G1 X137.715 Y101.604 E22.09387
G1 X137.941 Y102.227 E22.1565
G1 X138.478 Y103.932 E22.32542
G1 X138.647 Y104.561 E22.38697
G1 X139.035 Y106.308 E22.55609
G1 X139.15 Y106.959 E22.61856
G1 X139.383 Y108.731 E22.78745
G1 X139.44 Y109.384 E22.8494
G1 X139.518 Y111.171 E23.01843
G1 X139.518 Y111.827 E23.08042
G1 X139.44 Y113.614 E23.24945
G1 X139.383 Y114.266 E23.3113
G1 X139.15 Y116.039 E23.48029
G1 X139.035 Y116.69 E23.54276
G1 X138.647 Y118.438 E23.71197
G1 X138.479 Y119.066 E23.7734
G1 X137.943 Y120.769 E23.94212
G1 X137.715 Y121.394 E24.00499
G1 X137.029 Y123.047 E24.17411
G1 X136.753 Y123.639 E24.23584
G1 X135.927 Y125.225 E24.40483
G1 X135.601 Y125.79 E24.46647
G1 X134.641 Y127.298 E24.6354
G1 X134.263 Y127.838 E24.69769
G1 X133.174 Y129.257 E24.86672
G1 X132.753 Y129.758 E24.92856
G1 X131.545 Y131.077 E25.09759
G1 X131.079 Y131.544 E25.15993
G1 X129.759 Y132.753 E25.32908
G1 X129.257 Y133.174 E25.391
G1 X127.839 Y134.262 E25.5599
G1 X127.301 Y134.639 E25.62198
G1 X125.794 Y135.599 E25.79083
G1 X125.227 Y135.926 E25.85269
G1 X123.639 Y136.753 E26.02188
G1 X123.047 Y137.03 E26.08365
G1 X121.396 Y137.715 E26.25256
G1 X120.773 Y137.941 E26.31519
G1 X119.068 Y138.478 E26.48412
G1 X118.438 Y138.647 E26.54575
G1 X116.69 Y139.035 E26.71496
G1 X116.039 Y139.15 E26.77743
G1 X114.266 Y139.383 E26.94642
G1 X113.614 Y139.44 E27.00827
G1 X111.828 Y139.518 E27.17721
G1 X111.172 Y139.518 E27.2392
G1 X109.386 Y139.44 E27.40814
G1 X108.734 Y139.383 E27.46999
G1 X106.961 Y139.15 E27.63898
G1 X106.31 Y139.035 E27.70145
G1 X104.562 Y138.647 E27.87066
G1 X103.932 Y138.478 E27.9323
G1 X102.227 Y137.941 E28.10122
G1 X101.604 Y137.715 E28.16385
G1 X99.953 Y137.03 E28.33276
G1 X99.361 Y136.753 E28.39453
G1 X97.773 Y135.926 E28.56373
G1 X97.206 Y135.599 E28.62558
G1 X95.699 Y134.639 E28.79443
G1 X95.161 Y134.262 E28.85651
G1 X93.743 Y133.174 E29.02541
G1 X93.241 Y132.753 E29.08733
G1 X91.921 Y131.544 E29.25648
G1 X91.455 Y131.077 E29.31883
G1 X90.247 Y129.758 E29.48785
G1 X89.826 Y129.257 E29.54969
G1 X88.737 Y127.838 E29.71872
G1 X88.359 Y127.298 E29.78101
G1 X87.399 Y125.79 E29.94994
G1 X87.073 Y125.225 E30.01159
G1 X86.247 Y123.639 E30.18057
G1 X85.971 Y123.047 E30.2423
G1 X85.285 Y121.394 E30.41142
G1 X85.057 Y120.769 E30.47429
G1 X84.521 Y119.066 E30.64301
G1 X84.353 Y118.438 E30.70444
G1 X83.965 Y116.69 E30.87365
G1 X83.85 Y116.039 E30.93612
G1 X83.617 Y114.266 E31.10511
G1 X83.56 Y113.615 E31.16686
G1 X83.482 Y111.83 E31.33571
G1 X83.482 Y111.173 E31.39779
G1 X83.56 Y109.386 E31.56683
G1 X83.617 Y108.734 E31.62867
G1 X83.85 Y106.961 E31.79766
G1 X83.965 Y106.31 E31.86014
G1 X84.353 Y104.562 E32.02934
G1 X84.521 Y103.934 E32.09077
G1 X85.057 Y102.231 E32.25949
G1 X85.285 Y101.606 E32.32236
G1 X85.971 Y99.953 E32.49149
G1 X86.247 Y99.361 E32.55321
G1 X87.073 Y97.775 E32.7222
G1 X87.399 Y97.21 E32.78384
G1 X88.359 Y95.702 E32.95277
G1 X88.737 Y95.162 E33.01506
G1 X89.826 Y93.743 E33.1841
G1 X90.247 Y93.242 E33.24594
G1 X91.455 Y91.923 E33.41496
G1 X91.921 Y91.456 E33.4773
G0 F4800 X92.158 Y91.714
G1 F1800 X93.478 Y90.505 E33.64646
G1 X93.956 Y90.104 E33.70542
G1 X95.374 Y89.016 E33.87432
G1 X95.887 Y88.657 E33.93349
G1 X97.394 Y87.697 E34.10234
G1 X97.935 Y87.384 E34.16141
G1 X99.523 Y86.557 E34.3306
G1 X100.087 Y86.294 E34.38941
G1 X101.738 Y85.609 E34.55833
G1 X102.333 Y85.392 E34.61818
G1 X104.038 Y84.855 E34.7871
G1 X104.638 Y84.694 E34.84581
G1 X106.386 Y84.306 E35.01501
G1 X107.006 Y84.197 E35.0745
G1 X108.779 Y83.964 E35.24349
G1 X109.401 Y83.91 E35.30249
G1 X111.187 Y83.832 E35.47143
G1 X111.813 Y83.832 E35.53059
G1 X113.599 Y83.91 E35.69952
G1 X114.221 Y83.964 E35.75852
G1 X115.994 Y84.197 E35.92751
G1 X116.614 Y84.306 E35.987
G1 X118.362 Y84.694 E36.15621
G1 X118.962 Y84.855 E36.21491
G1 X120.667 Y85.392 E36.38384
G1 X121.262 Y85.609 E36.44369
G1 X122.913 Y86.294 E36.6126
G1 X123.477 Y86.557 E36.67141
G1 X125.063 Y87.383 E36.8404
G1 X125.603 Y87.695 E36.89933
G1 X127.112 Y88.656 E37.06839
G1 X127.626 Y89.016 E37.1277
G1 X129.044 Y90.104 E37.2966
G1 X129.522 Y90.505 E37.35556
G1 X130.841 Y91.713 E37.52458
G1 X131.286 Y92.158 E37.58405
G1 X132.495 Y93.478 E37.7532
G1 X132.896 Y93.956 E37.81217
G1 X133.984 Y95.374 E37.98107
G1 X134.343 Y95.887 E38.04024
G1 X135.303 Y97.394 E38.20909
G1 X135.616 Y97.935 E38.26815
G1 X136.443 Y99.523 E38.43735
G1 X136.706 Y100.087 E38.49616
G1 X137.391 Y101.738 E38.66507
G1 X137.608 Y102.333 E38.72492
G1 X138.145 Y104.038 E38.89385
G1 X138.305 Y104.637 E38.95244
G1 X138.693 Y106.384 E39.12155
G1 X138.803 Y107.005 E39.18115
G1 X139.036 Y108.777 E39.35005
G1 X139.09 Y109.399 E39.40905
G1 X139.168 Y111.186 E39.57808
G1 X139.168 Y111.812 E39.63724
G1 X139.09 Y113.599 E39.80627
G1 X139.036 Y114.221 E39.86527
G1 X138.803 Y115.994 E40.03426
G1 X138.694 Y116.614 E40.09375
G1 X138.306 Y118.362 E40.26295
G1 X138.145 Y118.961 E40.32157
G1 X137.609 Y120.664 E40.49028
G1 X137.392 Y121.26 E40.55022
G1 X136.706 Y122.913 E40.71935
G1 X136.443 Y123.477 E40.77816
G1 X135.617 Y125.063 E40.94714
G1 X135.306 Y125.602 E41.00595
G1 X134.346 Y127.11 E41.17488
G1 X133.985 Y127.625 E41.23431
G1 X132.896 Y129.044 E41.40335
G1 X132.495 Y129.522 E41.46231
G1 X131.287 Y130.841 E41.63133
G1 X130.842 Y131.286 E41.6908
G1 X129.522 Y132.495 E41.85995
G1 X129.044 Y132.896 E41.91891
G1 X127.626 Y133.984 E42.08782
G1 X127.113 Y134.343 E42.14699
G1 X125.606 Y135.303 E42.31584
G1 X125.065 Y135.616 E42.3749
G1 X123.477 Y136.443 E42.5441
G1 X122.913 Y136.706 E42.60291
G1 X121.262 Y137.391 E42.77182
G1 X120.667 Y137.608 E42.83167
G1 X118.962 Y138.145 E43.0006
G1 X118.362 Y138.306 E43.0593
G1 X116.614 Y138.694 E43.22851
G1 X115.994 Y138.803 E43.288
G1 X114.221 Y139.036 E43.45699
G1 X113.599 Y139.09 E43.51599
G1 X111.813 Y139.168 E43.68493
G1 X111.187 Y139.168 E43.74408
G1 X109.401 Y139.09 E43.91302
G1 X108.779 Y139.036 E43.97202
G1 X107.006 Y138.803 E44.14101
G1 X106.386 Y138.694 E44.2005
G1 X104.638 Y138.306 E44.3697
G1 X104.038 Y138.145 E44.42841
G1 X102.333 Y137.608 E44.59734
G1 X101.738 Y137.391 E44.65719
G1 X100.087 Y136.706 E44.8261
G1 X99.523 Y136.443 E44.88491
G1 X97.935 Y135.616 E45.05411
G1 X97.394 Y135.303 E45.11317
G1 X95.887 Y134.343 E45.28202
G1 X95.374 Y133.984 E45.34119
G1 X93.956 Y132.896 E45.51009
G1 X93.478 Y132.495 E45.56905
G1 X92.158 Y131.286 E45.73821
G1 X91.713 Y130.841 E45.79768
G1 X90.505 Y129.522 E45.9667
G1 X90.104 Y129.044 E46.02566
G1 X89.015 Y127.625 E46.19469
G1 X88.654 Y127.11 E46.25413
G1 X87.694 Y125.602 E46.42306
G1 X87.383 Y125.063 E46.48187
G1 X86.557 Y123.477 E46.65085
G1 X86.294 Y122.913 E46.70966
G1 X85.608 Y121.26 E46.87879
G1 X85.391 Y120.664 E46.93872
G1 X84.855 Y118.961 E47.10744
G1 X84.694 Y118.362 E47.16606
G1 X84.306 Y116.614 E47.33526
G1 X84.197 Y115.994 E47.39475
G1 X83.964 Y114.221 E47.56374
G1 X83.91 Y113.599 E47.62274
G1 X83.832 Y111.814 E47.79158
G1 X83.832 Y111.188 E47.85074
G1 X83.91 Y109.401 E48.01977
G1 X83.964 Y108.779 E48.07877
G1 X84.197 Y107.006 E48.24776
G1 X84.306 Y106.386 E48.30725
G1 X84.694 Y104.638 E48.47646
G1 X84.855 Y104.039 E48.53507
G1 X85.391 Y102.336 E48.70379
G1 X85.608 Y101.74 E48.76373
G1 X86.294 Y100.087 E48.93285
G1 X86.557 Y99.523 E48.99166
G1 X87.383 Y97.937 E49.16065
G1 X87.694 Y97.398 E49.21945
G1 X88.654 Y95.89 E49.38838
G1 X89.015 Y95.375 E49.44782
G1 X90.104 Y93.956 E49.61685
G1 X90.505 Y93.478 E49.67581
G1 X91.713 Y92.159 E49.84483
G1 X92.158 Y91.714 E49.9043
G0 F4800 X92.394 Y91.972
G1 F1800 X93.714 Y90.763 E50.07346
G1 X94.169 Y90.381 E50.1296
G1 X95.587 Y89.293 E50.2985
G1 X96.075 Y88.952 E50.35476
G1 X97.582 Y87.992 E50.52361
G1 X98.097 Y87.695 E50.57979
G1 X99.685 Y86.868 E50.74899
G1 X100.221 Y86.617 E50.80492
G1 X101.872 Y85.932 E50.97384
G1 X102.438 Y85.726 E51.03076
G1 X104.143 Y85.189 E51.19968
G1 X104.714 Y85.036 E51.25554
G1 X106.462 Y84.648 E51.42475
G1 X107.052 Y84.544 E51.48136
G1 X108.825 Y84.311 E51.65035
G1 X109.416 Y84.259 E51.70642
G1 X111.202 Y84.181 E51.87536
G1 X111.798 Y84.181 E51.93168
G1 X113.584 Y84.259 E52.10062
G1 X114.175 Y84.311 E52.15668
G1 X115.948 Y84.544 E52.32567
G1 X116.538 Y84.648 E52.38229
G1 X118.286 Y85.036 E52.55149
G1 X118.857 Y85.189 E52.60735
G1 X120.562 Y85.726 E52.77628
G1 X121.128 Y85.932 E52.8332
G1 X122.779 Y86.617 E53.00211
G1 X123.316 Y86.868 E53.05813
G1 X124.902 Y87.694 E53.22712
G1 X125.415 Y87.99 E53.28309
G1 X126.924 Y88.951 E53.45215
G1 X127.413 Y89.293 E53.50854
G1 X128.831 Y90.381 E53.67744
G1 X129.286 Y90.763 E53.73358
G1 X130.605 Y91.971 E53.9026
G1 X131.028 Y92.394 E53.95913
G1 X132.237 Y93.714 E54.12829
G1 X132.619 Y94.169 E54.18443
G1 X133.707 Y95.587 E54.35333
G1 X134.048 Y96.075 E54.40959
G1 X135.008 Y97.582 E54.57844
G1 X135.305 Y98.097 E54.63462
G1 X136.132 Y99.685 E54.80382
G1 X136.383 Y100.221 E54.85975
G1 X137.068 Y101.872 E55.02867
G1 X137.274 Y102.438 E55.08558
G1 X137.811 Y104.143 E55.25451
G1 X137.964 Y104.713 E55.31028
G1 X138.352 Y106.46 E55.4794
G1 X138.456 Y107.05 E55.53601
G1 X138.689 Y108.822 E55.70491
G1 X138.741 Y109.414 E55.76107
G1 X138.819 Y111.201 E55.9301
G1 X138.819 Y111.797 E55.98642
G1 X138.741 Y113.584 E56.15545
G1 X138.689 Y114.175 E56.21152
G1 X138.456 Y115.948 E56.38051
G1 X138.352 Y116.538 E56.43712
G1 X137.964 Y118.286 E56.60633
G1 X137.811 Y118.856 E56.6621
G1 X137.275 Y120.559 E56.83082
G1 X137.069 Y121.126 E56.88782
G1 X136.383 Y122.779 E57.05695
G1 X136.132 Y123.316 E57.11297
G1 X135.306 Y124.902 E57.28195
G1 X135.01 Y125.414 E57.33784
G1 X134.05 Y126.922 E57.50677
G1 X133.707 Y127.412 E57.56329
G1 X132.618 Y128.831 E57.73233
G1 X132.237 Y129.286 E57.78841
G1 X131.029 Y130.605 E57.95743
G1 X130.606 Y131.028 E58.01396
G1 X129.286 Y132.237 E58.18311
G1 X128.831 Y132.619 E58.23926
G1 X127.413 Y133.707 E58.40816
G1 X126.925 Y134.048 E58.46442
G1 X125.418 Y135.008 E58.63327
G1 X124.903 Y135.305 E58.68945
G1 X123.315 Y136.132 E58.85865
G1 X122.779 Y136.383 E58.91458
G1 X121.128 Y137.068 E59.08349
G1 X120.562 Y137.274 E59.14041
G1 X118.857 Y137.811 E59.30934
G1 X118.286 Y137.964 E59.3652
G1 X116.538 Y138.352 E59.53441
G1 X115.948 Y138.456 E59.59102
G1 X114.175 Y138.689 E59.76001
G1 X113.584 Y138.741 E59.81607
G1 X111.798 Y138.819 E59.98501
G1 X111.202 Y138.819 E60.04133
G1 X109.416 Y138.741 E60.21027
G1 X108.825 Y138.689 E60.26634
G1 X107.052 Y138.456 E60.43533
