;FLAVOR:UltiGCode
;TIME:4066
;MATERIAL:6030
;MATERIAL2:0
;NOZZLE_DIAMETER:0.4
;Generated with Cura_SteamEngine 2.7.0

;LAYER_COUNT:169
;LAYER:0
M107
G0 F4500 X76.215 Y99.519 Z0.27
;TYPE:SKIRT
G1 F1800 X76.854 Y99.049 E0.07496
G1 X77.538 Y98.646 E0.14998
G1 X78.258 Y98.313 E0.22495
G1 X79.008 Y98.055 E0.2999
G1 X79.781 Y97.873 E0.37495
G1 X80.567 Y97.77 E0.44986
G1 X81.195 Y97.745 E0.50925
G1 X111.105 Y97.744 E3.33575
G1 X111.897 Y97.784 E3.41068
G1 X112.682 Y97.903 E3.48571
G1 X113.45 Y98.101 E3.56066
G1 X114.195 Y98.375 E3.63568
G1 X114.908 Y98.723 E3.71065
G1 X115.583 Y99.141 E3.78568
G1 X115.985 Y99.45 E3.8336
G1 X118.576 Y99.45 E4.07844
G1 X119.368 Y99.49 E4.15338
G1 X120.153 Y99.609 E4.22841
G1 X120.921 Y99.807 E4.30336
G1 X121.666 Y100.082 E4.37841
G1 X122.379 Y100.429 E4.45334
G1 X122.981 Y100.802 E4.52027
G1 X123.407 Y100.551 E4.56699
G1 X124.127 Y100.218 E4.64196
G1 X124.877 Y99.96 E4.71691
G1 X125.65 Y99.778 E4.79195
G1 X126.436 Y99.675 E4.86687
G1 X127.064 Y99.65 E4.92626
G1 X131.238 Y99.65 E5.3207
G1 X132.03 Y99.69 E5.39564
G1 X132.815 Y99.809 E5.47067
G1 X133.583 Y100.007 E5.54562
G1 X134.328 Y100.282 E5.62067
G1 X135.041 Y100.629 E5.6956
G1 X135.716 Y101.047 E5.77063
G1 X136.345 Y101.53 E5.84557
G1 X136.834 Y101.984 E5.90863
G1 X136.936 Y102.087 E5.92233
G1 X137.465 Y102.678 E5.99728
G1 X137.932 Y103.319 E6.07223
G1 X138.332 Y104.005 E6.14727
G1 X138.52 Y104.417 E6.19007
G1 X138.916 Y104.357 E6.22792
G1 X139.427 Y104.323 E6.27631
G1 X139.948 Y104.305 E6.32558
G1 X140.741 Y104.317 E6.40052
G1 X141.53 Y104.41 E6.4756
G1 X142.304 Y104.581 E6.55051
G1 X143.058 Y104.829 E6.62551
G1 X143.783 Y105.152 E6.70052
G1 X144.471 Y105.546 E6.77544
G1 X145.117 Y106.008 E6.85049
G1 X145.713 Y106.532 E6.92549
G1 X146.253 Y107.113 E7.00044
G1 X146.731 Y107.746 E7.0754
G1 X147.144 Y108.424 E7.15042
G1 X147.486 Y109.139 E7.22532
G1 X147.755 Y109.886 E7.30035
G1 X147.947 Y110.656 E7.37535
G1 X148.035 Y111.203 E7.4277
G1 X148.153 Y112.152 E7.51807
G1 X148.211 Y112.944 E7.59312
G1 X148.189 Y113.737 E7.66808
G1 X148.088 Y114.524 E7.74307
G1 X147.907 Y115.297 E7.81809
G1 X147.65 Y116.047 E7.89301
G1 X147.319 Y116.768 E7.96798
G1 X146.917 Y117.452 E8.04296
G1 X146.448 Y118.092 E8.11794
G1 X145.917 Y118.682 E8.19295
G1 X145.329 Y119.215 E8.26795
G1 X144.691 Y119.686 E8.34289
G1 X144.009 Y120.091 E8.41784
G1 X143.289 Y120.425 E8.49285
G1 X142.539 Y120.685 E8.56786
G1 X141.767 Y120.868 E8.64284
G1 X140.981 Y120.973 E8.71777
G1 X140.338 Y120.999 E8.77859
G1 X139.548 Y120.999 E8.85324
G1 X138.756 Y120.959 E8.92818
G1 X137.971 Y120.84 E9.00321
G1 X137.203 Y120.642 E9.07816
G1 X136.458 Y120.367 E9.15321
G1 X135.745 Y120.02 E9.22814
G1 X135.07 Y119.602 E9.30317
G1 X134.441 Y119.119 E9.37811
G1 X134.109 Y118.805 E9.42129
G1 X133.386 Y119.051 E9.49346
G1 X132.613 Y119.229 E9.56843
G1 X131.825 Y119.328 E9.64348
G1 X131.236 Y119.35 E9.69918
G1 X127.064 Y119.35 E10.09343
G1 X126.272 Y119.31 E10.16837
G1 X125.487 Y119.191 E10.2434
G1 X124.719 Y118.993 E10.31835
G1 X124.202 Y118.802 E10.37043
G1 X123.642 Y119.295 E10.44094
G1 X122.996 Y119.756 E10.51594
G1 X122.307 Y120.15 E10.59094
G1 X121.582 Y120.472 E10.66591
G1 X120.829 Y120.72 E10.74082
G1 X120.054 Y120.89 E10.8158
G1 X119.265 Y120.982 E10.89087
G1 X118.75 Y120.999 E10.93956
G1 X118.199 Y120.999 E10.99163
G1 X117.803 Y121.639 E11.06275
G1 X117.32 Y122.268 E11.1377
G1 X116.893 Y122.729 E11.19708
G1 X116.673 Y122.949 E11.22648
G1 X116.085 Y123.482 E11.30148
G1 X115.446 Y123.952 E11.37644
G1 X114.762 Y124.355 E11.45146
G1 X114.042 Y124.688 E11.52642
G1 X113.292 Y124.946 E11.60138
G1 X112.519 Y125.128 E11.67642
G1 X111.733 Y125.231 E11.75133
G1 X111.105 Y125.256 E11.81073
G1 X81.195 Y125.256 E14.63722
G1 X80.403 Y125.216 E14.71216
G1 X79.618 Y125.097 E14.78719
G1 X78.85 Y124.899 E14.86214
G1 X78.105 Y124.624 E14.93719
G1 X77.392 Y124.277 E15.01212
G1 X76.717 Y123.859 E15.08715
G1 X76.088 Y123.376 E15.16209
G1 X75.627 Y122.949 E15.22147
G1 X75.407 Y122.729 E15.25087
G1 X74.874 Y122.141 E15.32587
G1 X74.404 Y121.502 E15.40083
G1 X74.001 Y120.818 E15.47585
G1 X73.668 Y120.098 E15.55082
G1 X73.41 Y119.348 E15.62577
G1 X73.228 Y118.575 E15.70082
G1 X73.125 Y117.789 E15.77573
G1 X73.1 Y117.161 E15.83512
G1 X73.1 Y105.84 E16.90496
G1 X73.14 Y105.048 E16.9799
G1 X73.259 Y104.263 E17.05493
G1 X73.457 Y103.495 E17.12987
G1 X73.732 Y102.75 E17.20492
G1 X74.079 Y102.037 E17.27985
G1 X74.497 Y101.362 E17.35488
G1 X74.98 Y100.733 E17.42983
G1 X75.407 Y100.272 E17.48921
G1 X75.627 Y100.052 E17.51861
G1 X76.215 Y99.519 E17.59361
G0 F4500 X76.45 Y99.78
G1 F1800 X77.076 Y99.322 E17.6669
G1 X77.747 Y98.932 E17.74025
G1 X78.453 Y98.612 E17.8135
G1 X79.189 Y98.367 E17.8868
G1 X79.947 Y98.199 E17.96017
G1 X80.717 Y98.11 E18.03342
G1 X81.195 Y98.095 E18.07861
G1 X111.105 Y98.094 E20.90511
G1 X111.879 Y98.134 E20.97835
G1 X112.646 Y98.253 E21.0517
G1 X113.396 Y98.451 E21.125
G1 X114.121 Y98.725 E21.19824
G1 X114.815 Y99.072 E21.27157
G1 X115.469 Y99.489 E21.34486
G1 X115.861 Y99.8 E21.39215
G1 X118.576 Y99.8 E21.64872
G1 X119.351 Y99.84 E21.72205
G1 X120.117 Y99.959 E21.79531
G1 X120.867 Y100.157 E21.86861
G1 X121.593 Y100.431 E21.94194
G1 X122.286 Y100.778 E22.01518
G1 X122.94 Y101.195 E22.08848
G1 X122.965 Y101.215 E22.0915
G1 X123.616 Y100.837 E22.16264
G1 X124.322 Y100.517 E22.23589
G1 X125.058 Y100.272 E22.3092
G1 X125.816 Y100.104 E22.38257
G1 X126.586 Y100.015 E22.45582
G1 X127.064 Y100 E22.50101
G1 X131.238 Y100 E22.89545
G1 X132.013 Y100.04 E22.96879
G1 X132.779 Y100.159 E23.04204
G1 X133.529 Y100.357 E23.11535
G1 X134.255 Y100.631 E23.18868
G1 X134.948 Y100.978 E23.26192
G1 X135.602 Y101.395 E23.33521
G1 X136.21 Y101.877 E23.40853
G1 X136.585 Y102.23 E23.4572
G1 X136.687 Y102.333 E23.4709
G1 X137.204 Y102.912 E23.54425
G1 X137.658 Y103.54 E23.61748
G1 X138.045 Y104.212 E23.69077
G1 X138.308 Y104.802 E23.75181
G1 X138.407 Y104.78 E23.76139
G1 X139.439 Y104.672 E23.85945
G1 X139.96 Y104.654 E23.90871
G1 X140.736 Y104.668 E23.98206
G1 X141.506 Y104.761 E24.05535
G1 X142.262 Y104.932 E24.1286
G1 X142.997 Y105.181 E24.20193
G1 X143.702 Y105.504 E24.27522
G1 X144.37 Y105.898 E24.3485
G1 X144.994 Y106.358 E24.42176
G1 X145.568 Y106.881 E24.49514
G1 X146.084 Y107.459 E24.56836
G1 X146.538 Y108.088 E24.64167
G1 X146.926 Y108.76 E24.715
G1 X147.241 Y109.469 E24.78832
G1 X147.483 Y110.206 E24.86162
G1 X147.687 Y111.246 E24.96177
G1 X147.805 Y112.195 E25.05215
G1 X147.861 Y112.969 E25.12548
G1 X147.837 Y113.744 E25.19875
G1 X147.734 Y114.513 E25.27207
G1 X147.551 Y115.267 E25.34539
G1 X147.293 Y115.998 E25.41865
G1 X146.96 Y116.699 E25.49199
G1 X146.557 Y117.361 E25.56523
G1 X146.087 Y117.979 E25.6386
G1 X145.557 Y118.545 E25.71187
G1 X144.971 Y119.053 E25.78516
G1 X144.336 Y119.499 E25.85849
G1 X143.659 Y119.877 E25.93177
G1 X142.946 Y120.183 E26.00509
G1 X142.206 Y120.414 E26.07835
G1 X141.446 Y120.567 E26.15161
G1 X140.338 Y120.649 E26.2566
G1 X139.548 Y120.649 E26.33125
G1 X138.773 Y120.609 E26.40459
G1 X138.007 Y120.49 E26.47784
G1 X137.257 Y120.292 E26.55115
G1 X136.531 Y120.018 E26.62448
G1 X135.838 Y119.671 E26.69772
G1 X135.184 Y119.254 E26.77101
G1 X134.576 Y118.772 E26.84434
G1 X134.184 Y118.389 E26.89613
G1 X133.943 Y118.496 E26.92104
G1 X133.206 Y118.737 E26.99432
G1 X132.448 Y118.902 E27.06763
G1 X131.677 Y118.987 E27.14093
G1 X131.236 Y119 E27.18262
G1 X127.064 Y119 E27.57688
G1 X126.289 Y118.96 E27.65021
G1 X125.523 Y118.841 E27.72347
G1 X124.773 Y118.643 E27.79677
G1 X124.109 Y118.393 E27.86382
G1 X123.881 Y118.629 E27.89483
G1 X123.287 Y119.128 E27.96814
G1 X122.645 Y119.563 E28.04142
G1 X121.961 Y119.929 E28.11473
G1 X121.244 Y120.224 E28.188
G1 X120.5 Y120.443 E28.26129
G1 X119.737 Y120.584 E28.33461
G1 X118.75 Y120.649 E28.42809
G1 X117.983 Y120.649 E28.50057
G1 X117.872 Y120.871 E28.52402
G1 X117.455 Y121.525 E28.59732
G1 X116.973 Y122.133 E28.67064
G1 X116.646 Y122.482 E28.71584
G1 X116.426 Y122.702 E28.74524
G1 X115.85 Y123.221 E28.81851
G1 X115.224 Y123.679 E28.89181
G1 X114.553 Y124.069 E28.96515
G1 X113.847 Y124.389 E29.0384
G1 X113.111 Y124.634 E29.1117
G1 X112.353 Y124.802 E29.18507
G1 X111.583 Y124.891 E29.25832
G1 X111.105 Y124.906 E29.30352
G1 X81.195 Y124.906 E32.13001
G1 X80.42 Y124.866 E32.20335
G1 X79.654 Y124.747 E32.2766
G1 X78.904 Y124.549 E32.3499
G1 X78.178 Y124.275 E32.42323
G1 X77.485 Y123.928 E32.49647
G1 X76.831 Y123.511 E32.56977
G1 X76.223 Y123.029 E32.64309
G1 X75.874 Y122.702 E32.68829
G1 X75.654 Y122.482 E32.71769
G1 X75.135 Y121.906 E32.79096
G1 X74.677 Y121.28 E32.86426
G1 X74.287 Y120.609 E32.9376
G1 X73.967 Y119.903 E33.01085
G1 X73.722 Y119.167 E33.08415
G1 X73.554 Y118.409 E33.15752
G1 X73.465 Y117.639 E33.23077
G1 X73.45 Y117.161 E33.27597
G1 X73.45 Y105.84 E34.3458
G1 X73.49 Y105.065 E34.41914
G1 X73.609 Y104.299 E34.49239
G1 X73.807 Y103.549 E34.56569
G1 X74.081 Y102.823 E34.63902
G1 X74.428 Y102.13 E34.71226
G1 X74.845 Y101.476 E34.78556
G1 X75.327 Y100.868 E34.85888
G1 X75.654 Y100.519 E34.90408
G1 X75.874 Y100.299 E34.93348
G1 X76.45 Y99.78 E35.00675
G0 F4500 X76.685 Y100.04
G1 F1800 X77.298 Y99.596 E35.07827
G1 X77.955 Y99.218 E35.1499
G1 X78.647 Y98.912 E35.22141
G1 X79.369 Y98.681 E35.29304
G1 X80.11 Y98.527 E35.36456
G1 X81.195 Y98.445 E35.46739
G1 X111.105 Y98.444 E38.29388
G1 X111.861 Y98.484 E38.36542
G1 X112.609 Y98.603 E38.437
G1 X113.34 Y98.801 E38.50857
G1 X114.046 Y99.075 E38.58013
G1 X114.72 Y99.421 E38.65173
G1 X115.353 Y99.837 E38.72331
G1 X115.717 Y100.15 E38.76868
G1 X118.576 Y100.15 E39.03885
G1 X119.332 Y100.19 E39.11039
G1 X120.08 Y100.309 E39.18197
G1 X120.811 Y100.507 E39.25354
G1 X121.518 Y100.781 E39.32519
G1 X122.191 Y101.127 E39.3967
G1 X122.824 Y101.543 E39.46828
G1 X122.958 Y101.653 E39.48466
G1 X123.167 Y101.501 E39.50909
G1 X123.824 Y101.123 E39.58071
G1 X124.516 Y100.817 E39.65222
G1 X125.238 Y100.586 E39.72385
G1 X125.979 Y100.432 E39.79537
G1 X127.064 Y100.35 E39.8982
G1 X131.238 Y100.35 E40.29264
G1 X131.994 Y100.39 E40.36418
G1 X132.742 Y100.509 E40.43576
G1 X133.473 Y100.707 E40.50733
G1 X134.18 Y100.981 E40.57898
G1 X134.853 Y101.327 E40.65049
G1 X135.486 Y101.743 E40.72207
G1 X136.336 Y102.476 E40.82814
G1 X136.438 Y102.579 E40.84184
G1 X136.942 Y103.145 E40.91346
G1 X137.383 Y103.76 E40.98497
G1 X137.757 Y104.419 E41.05658
G1 X138.06 Y105.113 E41.12814
G1 X138.09 Y105.207 E41.13746
G1 X138.678 Y105.091 E41.1941
G1 X139.451 Y105.022 E41.26744
G1 X139.972 Y105.004 E41.3167
G1 X140.729 Y105.018 E41.38825
G1 X141.481 Y105.112 E41.45987
G1 X142.219 Y105.284 E41.53148
G1 X142.934 Y105.533 E41.60303
G1 X143.619 Y105.856 E41.67459
G1 X144.266 Y106.25 E41.74618
G1 X144.868 Y106.709 E41.81772
G1 X145.418 Y107.229 E41.88925
G1 X145.911 Y107.805 E41.96089
G1 X146.34 Y108.429 E42.03245
G1 X146.7 Y109.095 E42.104
G1 X146.989 Y109.795 E42.17556
G1 X147.202 Y110.522 E42.24715
G1 X147.34 Y111.29 E42.32089
G1 X147.458 Y112.239 E42.41126
G1 X147.512 Y112.994 E42.48279
G1 X147.486 Y113.751 E42.55437
G1 X147.38 Y114.501 E42.62595
G1 X147.195 Y115.236 E42.69757
G1 X146.934 Y115.947 E42.76915
G1 X146.6 Y116.626 E42.84065
G1 X146.196 Y117.267 E42.91226
G1 X145.727 Y117.861 E42.98378
G1 X145.197 Y118.403 E43.05541
G1 X144.614 Y118.886 E43.12696
G1 X143.983 Y119.304 E43.19849
G1 X143.311 Y119.654 E43.27009
G1 X142.606 Y119.931 E43.34167
G1 X141.876 Y120.132 E43.41322
G1 X141.129 Y120.255 E43.48476
G1 X140.338 Y120.299 E43.55963
G1 X139.548 Y120.299 E43.63428
G1 X138.792 Y120.259 E43.70582
G1 X138.044 Y120.14 E43.7774
G1 X137.313 Y119.942 E43.84897
G1 X136.606 Y119.668 E43.92062
G1 X135.933 Y119.322 E43.99213
G1 X135.3 Y118.906 E44.06371
G1 X134.714 Y118.426 E44.13529
G1 X134.265 Y117.971 E44.1957
G1 X133.751 Y118.195 E44.24869
G1 X133.028 Y118.422 E44.3203
G1 X132.286 Y118.573 E44.39186
G1 X131.236 Y118.65 E44.49135
G1 X127.064 Y118.65 E44.8856
G1 X126.308 Y118.61 E44.95714
G1 X125.56 Y118.491 E45.02872
G1 X124.829 Y118.293 E45.10029
G1 X124.122 Y118.019 E45.17194
G1 X124.035 Y117.974 E45.1812
G1 X123.523 Y118.481 E45.24929
G1 X122.932 Y118.954 E45.32082
G1 X122.294 Y119.362 E45.39239
G1 X121.617 Y119.701 E45.46394
G1 X120.908 Y119.967 E45.5355
G1 X120.174 Y120.156 E45.60712
G1 X119.425 Y120.267 E45.67868
G1 X118.75 Y120.299 E45.74254
G1 X117.96 Y120.299 E45.81719
G1 X117.773 Y120.289 E45.83489
G1 X117.523 Y120.776 E45.88662
G1 X117.107 Y121.409 E45.9582
G1 X116.398 Y122.234 E46.061
G1 X116.178 Y122.454 E46.0904
G1 X115.615 Y122.961 E46.16199
G1 X115.002 Y123.405 E46.23352
G1 X114.345 Y123.783 E46.30515
G1 X113.653 Y124.089 E46.37665
G1 X112.931 Y124.32 E46.44829
G1 X112.19 Y124.474 E46.51981
G1 X111.105 Y124.556 E46.62263
G1 X81.195 Y124.556 E49.44913
G1 X80.439 Y124.516 E49.52067
G1 X79.691 Y124.397 E49.59225
G1 X78.96 Y124.199 E49.66382
G1 X78.253 Y123.925 E49.73547
G1 X77.58 Y123.579 E49.80698
G1 X76.947 Y123.163 E49.87856
G1 X76.122 Y122.454 E49.98136
G1 X75.902 Y122.234 E50.01076
G1 X75.395 Y121.671 E50.08236
G1 X74.951 Y121.058 E50.15388
G1 X74.573 Y120.401 E50.22551
G1 X74.267 Y119.709 E50.29701
G1 X74.036 Y118.987 E50.36865
G1 X73.882 Y118.246 E50.44017
G1 X73.8 Y117.161 E50.543
G1 X73.8 Y105.84 E51.61283
G1 X73.84 Y105.084 E51.68437
G1 X73.959 Y104.336 E51.75595
G1 X74.157 Y103.605 E51.82752
G1 X74.431 Y102.898 E51.89917
G1 X74.777 Y102.225 E51.97068
G1 X75.193 Y101.592 E52.04226
G1 X75.902 Y100.767 E52.14506
G1 X76.122 Y100.547 E52.17446
G1 X76.685 Y100.04 E52.24606
G0 F4500 X76.919 Y100.301
G1 F1800 X77.519 Y99.87 E52.31587
G1 X78.162 Y99.506 E52.38569
G1 X78.84 Y99.214 E52.45545
G1 X79.546 Y98.997 E52.52525
G1 X80.272 Y98.858 E52.5951
G1 X81.195 Y98.795 E52.68253
G1 X111.105 Y98.794 E55.50903
G1 X111.842 Y98.834 E55.57877
G1 X112.571 Y98.953 E55.64858
G1 X113.283 Y99.151 E55.71841
G1 X113.969 Y99.424 E55.78819
G1 X114.622 Y99.77 E55.85802
G1 X115.233 Y100.184 E55.92777
G1 X115.595 Y100.5 E55.97318
G1 X118.576 Y100.5 E56.25488
G1 X119.314 Y100.54 E56.32472
G1 X120.042 Y100.659 E56.39443
G1 X120.754 Y100.857 E56.46427
G1 X121.44 Y101.13 E56.53404
G1 X122.093 Y101.476 E56.60388
G1 X122.705 Y101.89 E56.6737
G1 X122.945 Y102.093 E56.70341
G1 X123.388 Y101.775 E56.75494
G1 X124.031 Y101.411 E56.82476
G1 X124.709 Y101.119 E56.89452
G1 X125.415 Y100.902 E56.96432
G1 X126.141 Y100.763 E57.03417
G1 X127.064 Y100.7 E57.1216
G1 X131.238 Y100.7 E57.51604
G1 X131.976 Y100.74 E57.58589
G1 X132.704 Y100.859 E57.6556
G1 X133.416 Y101.057 E57.72543
G1 X134.102 Y101.33 E57.79521
G1 X134.755 Y101.676 E57.86504
G1 X135.367 Y102.09 E57.93487
G1 X136.087 Y102.723 E58.02546
G1 X136.189 Y102.826 E58.03916
G1 X136.68 Y103.378 E58.10897
G1 X137.108 Y103.98 E58.17878
G1 X137.469 Y104.624 E58.24854
G1 X137.757 Y105.304 E58.31833
G1 X137.856 Y105.632 E58.35071
G1 X138.217 Y105.531 E58.38613
G1 X138.945 Y105.41 E58.45587
G1 X139.463 Y105.372 E58.50495
G1 X139.984 Y105.354 E58.55422
G1 X140.723 Y105.369 E58.62407
G1 X141.455 Y105.463 E58.69381
G1 X142.174 Y105.636 E58.76369
G1 X142.869 Y105.885 E58.83346
G1 X143.533 Y106.208 E58.90324
G1 X144.159 Y106.601 E58.97309
G1 X144.738 Y107.059 E59.04285
G1 X145.264 Y107.578 E59.11268
G1 X145.732 Y108.15 E59.18252
G1 X146.134 Y108.769 E59.25227
G1 X146.468 Y109.428 E59.32209
G1 X146.728 Y110.119 E59.39186
G1 X146.912 Y110.834 E59.46162
G1 X146.993 Y111.333 E59.5094
G1 X147.111 Y112.282 E59.59977
G1 X147.162 Y113.019 E59.66958
G1 X147.134 Y113.757 E59.73937
G1 X147.025 Y114.487 E59.80912
G1 X146.839 Y115.202 E59.87894
G1 X146.576 Y115.893 E59.94881
G1 X146.241 Y116.551 E60.01858
G1 X145.836 Y117.168 E60.08833
G1 X145.366 Y117.739 E60.15822
G1 X144.838 Y118.255 E60.22798
G1 X144.257 Y118.711 E60.29778
G1 X143.631 Y119.102 E60.36753
G1 X142.965 Y119.423 E60.43739
G1 X142.269 Y119.67 E60.50718
G1 X141.55 Y119.84 E60.577
G1 X140.817 Y119.932 E60.64682
G1 X140.338 Y119.949 E60.69211
G1 X139.548 Y119.949 E60.76676
G1 X138.81 Y119.909 E60.83661
G1 X138.082 Y119.79 E60.90632
G1 X137.37 Y119.592 E60.97615
G1 X136.684 Y119.319 E61.04593
G1 X136.031 Y118.973 E61.11576
G1 X135.419 Y118.559 E61.18559
G1 X134.856 Y118.081 E61.25538
G1 X134.348 Y117.545 E61.32516
G1 X134.347 Y117.544 E61.3253
