;FLAVOR:UltiGCode
;TIME:18272
;MATERIAL:16923
;MATERIAL2:0
;NOZZLE_DIAMETER:0.4
;Generated with Cura_SteamEngine 3.2.1
M82 ;absolute extrusion mode

;LAYER_COUNT:139
;LAYER:0
M107
G0 F4320 X31.586 Y55.895 Z0.27
;TYPE:SKIRT
G1 F1800 X32.306 Y55.562 E0.07496
G1 X33.056 Y55.304 E0.14992
G1 X33.829 Y55.122 E0.22496
G1 X34.615 Y55.019 E0.29987
G1 X35.408 Y54.996 E0.37484
G1 X36.2 Y55.052 E0.44987
G1 X36.982 Y55.188 E0.52488
G1 X37.746 Y55.402 E0.59986
G1 X38.484 Y55.692 E0.67479
G1 X39.19 Y56.055 E0.74981
G1 X39.856 Y56.486 E0.82478
G1 X40.475 Y56.983 E0.89979
G1 X40.812 Y57.301 E0.94358
G1 X63.173 Y79.663 E3.93204
G1 X80.321 Y62.515 E6.22376
G1 X57.959 Y40.153 E9.21229
G1 X57.426 Y39.565 E9.28728
G1 X56.956 Y38.926 E9.36224
G1 X56.553 Y38.242 E9.43727
G1 X56.22 Y37.522 E9.51223
G1 X55.962 Y36.772 E9.58718
G1 X55.78 Y35.999 E9.66223
G1 X55.677 Y35.213 E9.73714
G1 X55.654 Y34.42 E9.81211
G1 X55.71 Y33.628 E9.88714
G1 X55.846 Y32.846 E9.96215
G1 X56.06 Y32.082 E10.03713
G1 X56.35 Y31.344 E10.11206
G1 X56.713 Y30.638 E10.18708
G1 X57.144 Y29.972 E10.26204
G1 X57.641 Y29.353 E10.33706
G1 X57.959 Y29.017 E10.38078
G1 X65.03 Y21.946 E11.32577
G1 X65.618 Y21.413 E11.40077
G1 X66.257 Y20.943 E11.47573
G1 X66.941 Y20.54 E11.55075
G1 X67.661 Y20.207 E11.62572
G1 X68.411 Y19.949 E11.70067
G1 X69.184 Y19.767 E11.77571
G1 X69.97 Y19.664 E11.85062
G1 X70.763 Y19.641 E11.92559
G1 X71.555 Y19.697 E12.00063
G1 X72.337 Y19.833 E12.07563
G1 X73.101 Y20.047 E12.15061
G1 X73.839 Y20.337 E12.22554
G1 X74.545 Y20.7 E12.30056
G1 X75.211 Y21.131 E12.37553
G1 X75.83 Y21.628 E12.45055
G1 X76.166 Y21.946 E12.49426
G1 X111.521 Y57.301 E17.21922
G1 X112.054 Y57.889 E17.29422
G1 X112.524 Y58.528 E17.36918
G1 X112.927 Y59.212 E17.4442
G1 X113.26 Y59.932 E17.51916
G1 X113.518 Y60.682 E17.59411
G1 X113.7 Y61.455 E17.66916
G1 X113.803 Y62.241 E17.74407
G1 X113.826 Y63.034 E17.81904
G1 X113.77 Y63.826 E17.89407
G1 X113.634 Y64.608 E17.96908
G1 X113.42 Y65.372 E18.04406
G1 X113.13 Y66.11 E18.11899
G1 X112.767 Y66.816 E18.19401
G1 X112.336 Y67.482 E18.26898
G1 X111.839 Y68.101 E18.34399
G1 X111.522 Y68.437 E18.38765
G1 X103.327 Y76.633 E19.48292
G1 X105.942 Y76.171 E19.73386
G1 X106.729 Y76.073 E19.80881
G1 X107.311 Y76.051 E19.86385
G1 X111.667 Y76.051 E20.27549
G1 X112.459 Y76.091 E20.35043
G1 X113.037 Y76.171 E20.40557
G1 X117.329 Y76.929 E20.81744
G1 X118.102 Y77.106 E20.89238
G1 X118.653 Y77.284 E20.9471
G1 X121.715 Y78.398 E21.25501
G1 X193.723 Y6.39 E30.87839
G1 X194.311 Y5.857 E30.95339
G1 X194.95 Y5.387 E31.02835
G1 X195.634 Y4.984 E31.10337
G1 X196.354 Y4.651 E31.17834
G1 X197.104 Y4.393 E31.25329
G1 X197.877 Y4.211 E31.32833
G1 X198.663 Y4.108 E31.40325
G1 X199.456 Y4.085 E31.47822
G1 X200.248 Y4.141 E31.55325
G1 X201.03 Y4.277 E31.62826
G1 X201.794 Y4.491 E31.70323
G1 X202.532 Y4.781 E31.77816
G1 X203.238 Y5.144 E31.85318
G1 X203.904 Y5.575 E31.92815
G1 X204.523 Y6.072 E32.00317
G1 X204.859 Y6.39 E32.04689
G1 X211.93 Y13.461 E32.99188
G1 X212.463 Y14.049 E33.06687
G1 X212.933 Y14.688 E33.14183
G1 X213.336 Y15.372 E33.21686
G1 X213.669 Y16.092 E33.29182
G1 X213.927 Y16.842 E33.36677
G1 X214.109 Y17.615 E33.44182
G1 X214.212 Y18.401 E33.51673
G1 X214.235 Y19.194 E33.5917
G1 X214.179 Y19.986 E33.66673
G1 X214.043 Y20.768 E33.74174
G1 X213.829 Y21.532 E33.81672
G1 X213.539 Y22.27 E33.89165
G1 X213.176 Y22.976 E33.96667
G1 X212.745 Y23.642 E34.04163
G1 X212.248 Y24.261 E34.11665
G1 X211.931 Y24.597 E34.1603
G1 X139.922 Y96.606 E43.78382
G1 X141.036 Y99.666 E44.09155
G1 X141.27 Y100.424 E44.16652
G1 X141.391 Y100.99 E44.22122
G1 X142.149 Y105.284 E44.63327
G1 X142.247 Y106.071 E44.70822
G1 X142.269 Y106.653 E44.76326
G1 X142.269 Y111.009 E45.1749
G1 X142.229 Y111.801 E45.24984
G1 X142.149 Y112.377 E45.30479
G1 X141.392 Y116.668 E45.71655
G1 X141.215 Y117.442 E45.79158
G1 X141.037 Y117.993 E45.8463
G1 X139.546 Y122.091 E46.2584
G1 X139.238 Y122.822 E46.33336
G1 X138.967 Y123.334 E46.3881
G1 X136.79 Y127.106 E46.79967
G1 X136.359 Y127.773 E46.87471
G1 X136.002 Y128.232 E46.92966
G1 X133.201 Y131.57 E47.34145
G1 X132.661 Y132.151 E47.4164
G1 X132.229 Y132.541 E47.4714
G1 X128.889 Y135.343 E47.88339
G1 X128.257 Y135.822 E47.95833
G1 X127.765 Y136.13 E48.01319
G1 X123.992 Y138.308 E48.42488
G1 X123.286 Y138.67 E48.49985
G1 X122.747 Y138.889 E48.55483
G1 X118.651 Y140.379 E48.96672
G1 X117.893 Y140.612 E49.04166
G1 X117.329 Y140.733 E49.09617
G1 X113.037 Y141.491 E49.50804
G1 X112.249 Y141.589 E49.58308
G1 X111.667 Y141.611 E49.63812
G1 X107.311 Y141.611 E50.04976
G1 X106.519 Y141.571 E50.1247
G1 X105.942 Y141.491 E50.17975
G1 X101.649 Y140.733 E50.59171
G1 X100.875 Y140.556 E50.66674
G1 X100.326 Y140.379 E50.72125
G1 X97.262 Y139.265 E51.02934
G1 X23.133 Y213.394 E60.93618
G1 X22.545 Y213.927 E61.01118
G1 X21.906 Y214.397 E61.08614
G1 X21.222 Y214.8 E61.16116
G1 X20.502 Y215.133 E61.23612
G1 X19.752 Y215.391 E61.31107
G1 X18.979 Y215.573 E61.38612
G1 X18.193 Y215.676 E61.46103
G1 X17.4 Y215.699 E61.536
G1 X16.608 Y215.643 E61.61103
G1 X15.826 Y215.507 E61.68604
G1 X15.062 Y215.293 E61.76102
G1 X14.324 Y215.003 E61.83595
G1 X13.618 Y214.64 E61.91097
G1 X12.952 Y214.209 E61.98594
G1 X12.333 Y213.712 E62.06095
G1 X11.997 Y213.394 E62.10467
G1 X4.926 Y206.323 E63.04966
G1 X4.393 Y205.735 E63.12466
G1 X3.923 Y205.096 E63.19962
G1 X3.52 Y204.412 E63.27464
G1 X3.187 Y203.692 E63.34961
G1 X2.929 Y202.942 E63.42456
G1 X2.747 Y202.169 E63.4996
G1 X2.644 Y201.383 E63.57452
G1 X2.621 Y200.59 E63.64949
G1 X2.677 Y199.798 E63.72452
G1 X2.813 Y199.016 E63.79953
G1 X3.027 Y198.252 E63.8745
G1 X3.317 Y197.514 E63.94944
G1 X3.68 Y196.808 E64.02445
G1 X4.111 Y196.142 E64.09942
G1 X4.608 Y195.523 E64.17444
G1 X4.926 Y195.187 E64.21816
G1 X79.056 Y121.057 E74.12512
G1 X77.941 Y117.993 E74.43325
G1 X77.707 Y117.234 E74.50831
G1 X77.586 Y116.668 E74.563
G1 X76.829 Y112.377 E74.97476
G1 X76.73 Y111.59 E75.04972
G1 X76.709 Y111.009 E75.10466
G1 X76.709 Y106.653 E75.5163
G1 X76.749 Y105.861 E75.59124
G1 X76.829 Y105.285 E75.6462
G1 X77.291 Y102.668 E75.89733
G1 X69.095 Y110.864 E76.99267
G1 X68.507 Y111.397 E77.06766
G1 X67.868 Y111.867 E77.14262
G1 X67.184 Y112.27 E77.21765
G1 X66.464 Y112.603 E77.29261
G1 X65.714 Y112.861 E77.36756
G1 X64.941 Y113.043 E77.44261
G1 X64.155 Y113.146 E77.51752
G1 X63.362 Y113.169 E77.59249
G1 X62.57 Y113.113 E77.66752
G1 X61.788 Y112.977 E77.74253
G1 X61.024 Y112.763 E77.81751
G1 X60.286 Y112.473 E77.89244
G1 X59.58 Y112.11 E77.96746
G1 X58.914 Y111.679 E78.04242
G1 X58.295 Y111.182 E78.11744
G1 X57.958 Y110.864 E78.16123
G1 X22.603 Y75.508 E82.88625
G1 X22.071 Y74.92 E82.96118
G1 X21.601 Y74.281 E83.03614
G1 X21.198 Y73.597 E83.11117
G1 X20.865 Y72.877 E83.18613
G1 X20.607 Y72.127 E83.26108
G1 X20.425 Y71.354 E83.33613
G1 X20.322 Y70.568 E83.41104
G1 X20.299 Y69.774 E83.48611
G1 X20.355 Y68.983 E83.56104
G1 X20.491 Y68.201 E83.63605
G1 X20.705 Y67.437 E83.71103
G1 X20.995 Y66.698 E83.78605
G1 X21.358 Y65.993 E83.86098
G1 X21.79 Y65.327 E83.936
G1 X22.286 Y64.708 E84.01096
G1 X22.604 Y64.372 E84.05468
G1 X29.675 Y57.301 E84.99967
G1 X30.263 Y56.768 E85.07466
G1 X30.902 Y56.298 E85.14963
G1 X31.586 Y55.895 E85.22465
G0 F4320 X31.795 Y56.181
G1 F1800 X32.501 Y55.861 E85.2979
G1 X33.237 Y55.616 E85.3712
G1 X33.995 Y55.448 E85.44457
G1 X34.765 Y55.359 E85.51782
G1 X35.541 Y55.35 E85.59116
G1 X36.313 Y55.42 E85.66441
G1 X37.074 Y55.57 E85.73771
G1 X37.816 Y55.797 E85.81104
G1 X38.53 Y56.1 E85.88433
G1 X39.209 Y56.474 E85.95759
G1 X39.846 Y56.916 E86.03086
G1 X40.564 Y57.548 E86.12125
G1 X63.173 Y80.158 E89.14286
G1 X80.816 Y62.516 E91.50065
G1 X58.206 Y39.906 E94.52233
G1 X57.687 Y39.33 E94.5956
G1 X57.229 Y38.704 E94.6689
G1 X56.839 Y38.033 E94.74224
G1 X56.519 Y37.327 E94.81549
G1 X56.274 Y36.591 E94.88879
G1 X56.106 Y35.833 E94.96216
G1 X56.017 Y35.063 E95.03541
G1 X56.008 Y34.287 E95.10875
G1 X56.078 Y33.515 E95.182
G1 X56.228 Y32.754 E95.2553
G1 X56.455 Y32.012 E95.32863
G1 X56.758 Y31.298 E95.40192
G1 X57.132 Y30.619 E95.47518
G1 X57.574 Y29.982 E95.54845
G1 X58.206 Y29.264 E95.63884
G1 X65.277 Y22.193 E96.58383
G1 X65.853 Y21.674 E96.6571
G1 X66.479 Y21.216 E96.7304
G1 X67.15 Y20.826 E96.80374
G1 X67.856 Y20.506 E96.87699
G1 X68.592 Y20.261 E96.95029
G1 X69.35 Y20.093 E97.02366
G1 X70.12 Y20.004 E97.09691
G1 X70.896 Y19.995 E97.17025
G1 X71.668 Y20.065 E97.2435
G1 X72.429 Y20.215 E97.3168
G1 X73.171 Y20.442 E97.39013
G1 X73.885 Y20.745 E97.46343
G1 X74.564 Y21.119 E97.53668
G1 X75.201 Y21.561 E97.60995
G1 X75.919 Y22.193 E97.70034
G1 X111.274 Y57.548 E102.4253
G1 X111.793 Y58.124 E102.49857
G1 X112.251 Y58.75 E102.57186
G1 X112.641 Y59.421 E102.64521
G1 X112.961 Y60.127 E102.71846
G1 X113.206 Y60.863 E102.79176
G1 X113.374 Y61.621 E102.86513
G1 X113.463 Y62.391 E102.93838
G1 X113.472 Y63.167 E103.01172
G1 X113.402 Y63.939 E103.08497
G1 X113.252 Y64.7 E103.15827
G1 X113.025 Y65.442 E103.2316
G1 X112.722 Y66.156 E103.30489
G1 X112.348 Y66.835 E103.37815
G1 X111.906 Y67.472 E103.45142
G1 X111.274 Y68.19 E103.54181
G1 X102.453 Y77.012 E104.72074
G1 X102.564 Y77.123 E104.73558
G1 X106.003 Y76.516 E105.06559
G1 X106.772 Y76.42 E105.13882
G1 X107.311 Y76.401 E105.18979
G1 X111.667 Y76.401 E105.60143
G1 X112.442 Y76.441 E105.67476
G1 X112.976 Y76.516 E105.72572
G1 X117.268 Y77.274 E106.13759
G1 X118.024 Y77.448 E106.2109
G1 X118.533 Y77.613 E106.26147
G1 X121.803 Y78.804 E106.59034
G1 X193.97 Y6.637 E116.23497
G1 X194.546 Y6.118 E116.30824
G1 X195.172 Y5.66 E116.38154
G1 X195.843 Y5.27 E116.45488
G1 X196.549 Y4.95 E116.52813
G1 X197.285 Y4.705 E116.60143
G1 X198.043 Y4.537 E116.6748
G1 X198.813 Y4.448 E116.74805
G1 X199.589 Y4.439 E116.82139
G1 X200.361 Y4.509 E116.89464
G1 X201.122 Y4.659 E116.96794
G1 X201.864 Y4.886 E117.04127
G1 X202.578 Y5.189 E117.11456
G1 X203.257 Y5.563 E117.18782
G1 X203.894 Y6.005 E117.26109
G1 X204.612 Y6.637 E117.35148
G1 X211.683 Y13.708 E118.29647
G1 X212.202 Y14.284 E118.36974
G1 X212.66 Y14.91 E118.44304
G1 X213.05 Y15.581 E118.51638
G1 X213.37 Y16.287 E118.58963
G1 X213.615 Y17.023 E118.66294
G1 X213.783 Y17.781 E118.7363
G1 X213.872 Y18.551 E118.80955
G1 X213.881 Y19.327 E118.88289
G1 X213.811 Y20.099 E118.95614
G1 X213.661 Y20.86 E119.02944
G1 X213.434 Y21.602 E119.10277
G1 X213.131 Y22.316 E119.17607
G1 X212.757 Y22.995 E119.24932
G1 X212.315 Y23.632 E119.32259
G1 X211.683 Y24.35 E119.41298
G1 X139.517 Y96.517 E129.05754
G1 X140.707 Y99.785 E129.38621
G1 X140.935 Y100.527 E129.45956
G1 X141.046 Y101.051 E129.51018
G1 X141.804 Y105.345 E129.92224
G1 X141.9 Y106.115 E129.99556
G1 X141.919 Y106.653 E130.04644
G1 X141.919 Y111.009 E130.45808
G1 X141.879 Y111.784 E130.53141
G1 X141.805 Y112.316 E130.58217
G1 X141.048 Y116.607 E130.99393
G1 X140.874 Y117.363 E131.06724
G1 X140.708 Y117.873 E131.11793
G1 X139.217 Y121.971 E131.53002
G1 X138.915 Y122.685 E131.60328
G1 X138.663 Y123.16 E131.6541
G1 X136.486 Y126.932 E132.06566
G1 X136.065 Y127.582 E132.13884
G1 X135.733 Y128.007 E132.18981
G1 X132.932 Y131.345 E132.60159
G1 X132.404 Y131.913 E132.67488
G1 X132.004 Y132.273 E132.72573
G1 X128.664 Y135.075 E133.13772
G1 X128.045 Y135.542 E133.211
G1 X127.59 Y135.827 E133.26173
G1 X123.817 Y138.005 E133.67342
G1 X123.126 Y138.358 E133.74675
G1 X122.627 Y138.56 E133.79762
G1 X118.531 Y140.05 E134.20951
G1 X117.79 Y140.277 E134.28274
G1 X117.268 Y140.388 E134.33318
G1 X112.976 Y141.146 E134.74505
G1 X112.206 Y141.242 E134.81838
G1 X111.667 Y141.261 E134.86934
G1 X107.311 Y141.261 E135.28098
G1 X106.536 Y141.221 E135.35432
G1 X106.003 Y141.146 E135.40518
G1 X101.71 Y140.388 E135.81715
G1 X100.954 Y140.214 E135.89046
G1 X100.446 Y140.05 E135.9409
G1 X97.173 Y138.86 E136.27001
G1 X22.886 Y213.147 E146.19796
G1 X22.31 Y213.666 E146.27123
G1 X21.684 Y214.124 E146.34453
G1 X21.013 Y214.514 E146.41787
G1 X20.307 Y214.834 E146.49112
G1 X19.571 Y215.079 E146.56443
G1 X18.813 Y215.247 E146.6378
G1 X18.043 Y215.336 E146.71105
G1 X17.267 Y215.345 E146.78438
G1 X16.495 Y215.275 E146.85764
G1 X15.734 Y215.125 E146.93093
G1 X14.992 Y214.898 E147.00426
G1 X14.278 Y214.595 E147.07756
G1 X13.599 Y214.221 E147.15081
G1 X12.962 Y213.779 E147.22408
G1 X12.244 Y213.147 E147.31447
G1 X5.173 Y206.076 E148.25946
G1 X4.654 Y205.5 E148.33273
G1 X4.196 Y204.874 E148.40603
G1 X3.806 Y204.203 E148.47937
G1 X3.486 Y203.497 E148.55263
G1 X3.241 Y202.761 E148.62593
G1 X3.073 Y202.003 E148.6993
G1 X2.984 Y201.233 E148.77255
G1 X2.975 Y200.457 E148.84589
G1 X3.045 Y199.685 E148.91914
G1 X3.195 Y198.924 E148.99244
G1 X3.422 Y198.182 E149.06576
G1 X3.725 Y197.468 E149.13906
G1 X4.099 Y196.789 E149.21232
G1 X4.541 Y196.152 E149.28558
G1 X5.173 Y195.434 E149.37598
G1 X79.461 Y121.146 E159.30406
G1 X78.27 Y117.873 E159.6332
G1 X78.042 Y117.131 E159.70656
G1 X77.93 Y116.607 E159.75719
G1 X77.173 Y112.316 E160.16895
G1 X77.078 Y111.547 E160.24218
G1 X77.059 Y111.009 E160.29305
G1 X77.059 Y106.653 E160.70469
G1 X77.099 Y105.878 E160.77803
G1 X77.173 Y105.345 E160.82888
G1 X77.78 Y101.907 E161.15879
G1 X77.669 Y101.796 E161.17363
G1 X68.848 Y110.617 E162.35249
G1 X68.272 Y111.136 E162.42576
G1 X67.646 Y111.594 E162.49906
G1 X66.975 Y111.984 E162.5724
G1 X66.269 Y112.304 E162.64565
G1 X65.533 Y112.549 E162.71896
G1 X64.775 Y112.717 E162.79233
G1 X64.005 Y112.806 E162.86558
G1 X63.229 Y112.815 E162.93891
G1 X62.457 Y112.745 E163.01217
G1 X61.696 Y112.595 E163.08547
G1 X60.954 Y112.368 E163.15879
G1 X60.24 Y112.065 E163.23209
G1 X59.561 Y111.691 E163.30535
G1 X58.924 Y111.249 E163.37861
G1 X58.206 Y110.617 E163.46901
G1 X22.851 Y75.261 E168.19403
G1 X22.331 Y74.685 E168.26736
G1 X21.874 Y74.058 E168.34068
G1 X21.484 Y73.388 E168.41394
G1 X21.164 Y72.682 E168.48719
G1 X20.919 Y71.946 E168.56049
G1 X20.751 Y71.188 E168.63386
G1 X20.662 Y70.418 E168.70711
G1 X20.653 Y69.642 E168.78045
G1 X20.723 Y68.87 E168.8537
G1 X20.873 Y68.109 E168.927
G1 X21.1 Y67.367 E169.00033
G1 X21.403 Y66.653 E169.07363
G1 X21.777 Y65.974 E169.14688
G1 X22.219 Y65.336 E169.22023
G1 X22.851 Y64.619 E169.31055
G1 X29.922 Y57.548 E170.25554
G1 X30.498 Y57.029 E170.32881
G1 X31.124 Y56.571 E170.40211
G1 X31.795 Y56.181 E170.47545
G0 F4320 X32.003 Y56.467
G1 F1800 X32.695 Y56.161 E170.54695
G1 X33.417 Y55.93 E170.61859
G1 X34.158 Y55.776 E170.69011
G1 X34.912 Y55.702 E170.7617
G1 X35.669 Y55.707 E170.83324
G1 X36.422 Y55.792 E170.90485
G1 X37.161 Y55.955 E170.97637
G1 X37.879 Y56.196 E171.04794
G1 X38.568 Y56.511 E171.11953
G1 X39.22 Y56.897 E171.19113
G1 X39.827 Y57.349 E171.26265
G1 X40.317 Y57.796 E171.32533
G1 X63.173 Y80.653 E174.37994
G1 X81.311 Y62.515 E176.80396
G1 X58.454 Y39.658 E179.85865
G1 X57.947 Y39.095 E179.93024
G1 X57.503 Y38.482 E180.00177
G1 X57.125 Y37.825 E180.0734
G1 X56.819 Y37.133 E180.1449
G1 X56.588 Y36.411 E180.21654
G1 X56.434 Y35.67 E180.28806
G1 X56.36 Y34.916 E180.35965
G1 X56.365 Y34.159 E180.43119
G1 X56.45 Y33.406 E180.5028
G1 X56.613 Y32.667 E180.57432
G1 X56.854 Y31.949 E180.64589
G1 X57.169 Y31.26 E180.71748
G1 X57.555 Y30.608 E180.78908
G1 X58.007 Y30.001 E180.8606
G1 X58.454 Y29.512 E180.92321
G1 X65.525 Y22.441 E181.8682
G1 X66.088 Y21.934 E181.9398
G1 X66.701 Y21.49 E182.01132
G1 X67.358 Y21.112 E182.08295
G1 X68.05 Y20.806 E182.15445
G1 X68.772 Y20.575 E182.22609
G1 X69.513 Y20.421 E182.29761
G1 X70.267 Y20.347 E182.36921
G1 X71.024 Y20.352 E182.44074
G1 X71.777 Y20.437 E182.51236
G1 X72.516 Y20.6 E182.58387
G1 X73.234 Y20.841 E182.65544
G1 X73.923 Y21.156 E182.72703
G1 X74.575 Y21.542 E182.79864
G1 X75.182 Y21.994 E182.87015
G1 X75.671 Y22.441 E182.93276
G1 X111.026 Y57.796 E187.65772
G1 X111.533 Y58.359 E187.72931
G1 X111.977 Y58.972 E187.80084
G1 X112.355 Y59.629 E187.87247
G1 X112.661 Y60.321 E187.94397
G1 X112.892 Y61.043 E188.01561
G1 X113.046 Y61.784 E188.08713
G1 X113.12 Y62.538 E188.15872
G1 X113.115 Y63.295 E188.23026
G1 X113.03 Y64.048 E188.30187
G1 X112.867 Y64.787 E188.37339
G1 X112.626 Y65.505 E188.44496
G1 X112.311 Y66.194 E188.51655
G1 X111.925 Y66.846 E188.58815
G1 X111.473 Y67.453 E188.65967
G1 X111.027 Y67.942 E188.72221
G1 X101.957 Y77.012 E189.93436
G1 X102.444 Y77.499 E189.99944
G1 X106.063 Y76.86 E190.34673
